;FLAVOR:Marlin
;TIME:311
;Filament used: 0.106472m
;Layer height: 0.12
;MINX:115.572
;MINY:62.155
;MINZ:0.12
;MAXX:156.551
;MAXY:103.13
;MAXZ:0.96
;Generated with Cura_SteamEngine 4.4.1
M140 S60
M105
M190 S60
M104 S200
M105
M109 S200
M82 ;absolute extrusion mode
M201 X500.00 Y500.00 Z100.00 E5000.00 ;Setup machine max acceleration
M203 X500.00 Y500.00 Z10.00 E50.00 ;Setup machine max feedrate
M204 P500.00 R1000.00 T500.00 ;Setup Print/Retract/Travel acceleration
M205 X8.00 Y8.00 Z0.40 E5.00 ;Setup Jerk
M220 S100 ;Reset Feedrate
M221 S100 ;Reset Flowrate

G28 ;Home

G92 E0 ;Reset Extruder
G1 Z2.0 F3000 ;Move Z Axis up
G1 X10.1 Y20 Z0.28 F5000.0 ;Move to start position
G1 X10.1 Y200.0 Z0.28 F1500.0 E15 ;Draw the first line
G1 X10.4 Y200.0 Z0.28 F5000.0 ;Move to side a little
G1 X10.4 Y20 Z0.28 F1500.0 E30 ;Draw the second line
G92 E0 ;Reset Extruder
G1 Z2.0 F3000 ;Move Z Axis up

G92 E0
G92 E0
G1 F1500 E-6.5
;LAYER_COUNT:8
;LAYER:0
M107
G0 F6000 X118.489 Y72.106 Z0.12
;TYPE:SKIRT
G1 F1500 E0
G1 F1200 X118.736 Y71.711 E0.0093
G1 X119.121 Y71.122 E0.02334
G1 X119.496 Y70.583 E0.03644
G1 X119.643 Y70.385 E0.04136
G1 X119.93 Y70.015 E0.05071
G1 X120.384 Y69.455 E0.0651
G1 X120.806 Y68.965 E0.078
G1 X120.995 Y68.758 E0.08359
G1 X121.324 Y68.413 E0.09311
G1 X121.807 Y67.928 E0.10677
G1 X122.293 Y67.468 E0.12012
G1 X122.482 Y67.3 E0.12517
G1 X122.83 Y67.004 E0.13428
G1 X123.404 Y66.535 E0.14908
G1 X123.942 Y66.122 E0.16261
G1 X124.12 Y65.994 E0.16699
G1 X124.487 Y65.741 E0.17588
G1 X125.121 Y65.323 E0.19104
G1 X125.714 Y64.959 E0.20492
G1 X125.943 Y64.828 E0.21019
G1 X126.329 Y64.617 E0.21897
G1 X126.95 Y64.294 E0.23294
G1 X127.574 Y63.994 E0.24675
G1 X127.809 Y63.89 E0.25188
G1 X128.229 Y63.715 E0.26096
G1 X128.922 Y63.442 E0.27582
G1 X129.54 Y63.219 E0.28894
G1 X129.736 Y63.155 E0.29305
G1 X130.191 Y63.017 E0.30254
G1 X130.925 Y62.812 E0.31775
G1 X131.544 Y62.659 E0.33047
G1 X131.815 Y62.6 E0.33601
G1 X132.334 Y62.5 E0.34655
G1 X133.007 Y62.387 E0.36017
G1 X133.593 Y62.305 E0.37198
G1 X133.885 Y62.272 E0.37785
G1 X134.407 Y62.225 E0.3883
G1 X135.1 Y62.18 E0.40216
G1 X135.717 Y62.157 E0.41448
G1 X135.946 Y62.155 E0.41905
G1 X136.449 Y62.163 E0.42909
G1 X137.205 Y62.191 E0.44419
G1 X137.853 Y62.234 E0.45715
G1 X138.102 Y62.258 E0.46214
G1 X138.579 Y62.314 E0.47173
G1 X139.29 Y62.414 E0.48606
G1 X139.955 Y62.529 E0.49952
G1 X140.215 Y62.582 E0.50482
G1 X140.689 Y62.689 E0.51452
G1 X141.392 Y62.865 E0.52898
G1 X141.983 Y63.031 E0.54123
G1 X142.202 Y63.099 E0.54581
G1 X142.644 Y63.246 E0.5551
G1 X143.332 Y63.492 E0.56968
G1 X143.973 Y63.744 E0.58343
G1 X144.18 Y63.833 E0.58792
G1 X144.599 Y64.024 E0.59711
G1 X145.265 Y64.344 E0.61186
G1 X145.808 Y64.624 E0.62405
G1 X146.064 Y64.765 E0.62988
G1 X146.526 Y65.034 E0.64055
G1 X147.104 Y65.39 E0.6541
G1 X147.651 Y65.75 E0.66717
G1 X147.872 Y65.905 E0.67255
G1 X148.24 Y66.175 E0.68166
G1 X148.802 Y66.605 E0.69578
G1 X149.289 Y67 E0.7083
G1 X149.517 Y67.196 E0.7143
G1 X149.922 Y67.562 E0.72519
G1 X150.422 Y68.037 E0.73895
G1 X150.843 Y68.459 E0.75085
G1 X151.047 Y68.675 E0.75678
G1 X151.406 Y69.074 E0.76749
G1 X151.864 Y69.609 E0.78154
G1 X152.229 Y70.059 E0.79311
G1 X152.362 Y70.232 E0.79746
G1 X152.679 Y70.666 E0.80819
G1 X153.098 Y71.27 E0.82286
G1 X153.453 Y71.815 E0.83584
G1 X153.595 Y72.048 E0.84128
G1 X153.842 Y72.474 E0.85111
G1 X154.185 Y73.098 E0.86532
G1 X154.445 Y73.602 E0.87663
G1 X154.553 Y73.825 E0.88158
G1 X154.782 Y74.33 E0.89265
G1 X155.059 Y74.984 E0.90682
G1 X155.287 Y75.57 E0.91937
G1 X155.385 Y75.844 E0.92517
G1 X155.545 Y76.324 E0.93527
G1 X155.747 Y76.983 E0.94903
G1 X155.906 Y77.557 E0.96091
G1 X155.975 Y77.835 E0.96663
G1 X156.09 Y78.349 E0.97714
G1 X156.225 Y79.031 E0.99101
G1 X156.335 Y79.694 E1.00443
G1 X156.375 Y79.99 E1.01039
G1 X156.427 Y80.449 E1.0196
G1 X156.487 Y81.097 E1.03259
G1 X156.514 Y81.455 E1.03976
G1 X156.526 Y81.656 E1.04377
G1 X156.545 Y82.151 E1.05366
G1 X156.551 Y82.56 E1.06182
G1 X156.545 Y83.105 E1.0727
G1 X156.531 Y83.506 E1.08071
G1 X156.512 Y83.884 E1.08826
G1 X156.497 Y84.1 E1.09258
G1 X156.453 Y84.579 E1.10218
G1 X156.365 Y85.354 E1.11775
G1 X156.271 Y86.008 E1.13093
G1 X156.232 Y86.231 E1.13545
G1 X156.139 Y86.701 E1.14501
G1 X155.982 Y87.414 E1.15958
G1 X155.824 Y88.043 E1.17252
G1 X155.738 Y88.347 E1.17883
G1 X155.592 Y88.821 E1.18872
G1 X155.39 Y89.429 E1.20151
G1 X155.179 Y90.01 E1.21384
G1 X155.082 Y90.255 E1.2191
G1 X154.888 Y90.714 E1.22905
G1 X154.587 Y91.384 E1.24371
G1 X154.289 Y91.996 E1.25729
G1 X154.147 Y92.266 E1.26338
G1 X153.916 Y92.684 E1.27291
G1 X153.574 Y93.271 E1.28647
G1 X153.239 Y93.808 E1.2991
G1 X153.082 Y94.045 E1.30477
G1 X152.799 Y94.452 E1.31466
G1 X152.392 Y95.01 E1.32844
G1 X152.023 Y95.488 E1.3405
G1 X151.889 Y95.652 E1.34472
G1 X151.563 Y96.033 E1.35473
G1 X151.046 Y96.61 E1.37019
G1 X150.573 Y97.106 E1.38387
G1 X150.375 Y97.301 E1.38941
G1 X150.038 Y97.619 E1.39866
G1 X149.542 Y98.068 E1.41201
G1 X149.091 Y98.454 E1.42386
G1 X148.9 Y98.609 E1.42877
G1 X148.485 Y98.93 E1.43924
G1 X147.873 Y99.38 E1.4544
G1 X147.337 Y99.751 E1.4674
G1 X147.144 Y99.876 E1.47199
G1 X146.705 Y100.146 E1.48228
G1 X146.031 Y100.539 E1.49785
G1 X145.446 Y100.856 E1.51113
G1 X145.234 Y100.963 E1.51587
G1 X144.818 Y101.162 E1.52507
G1 X144.189 Y101.447 E1.53885
G1 X143.619 Y101.687 E1.55119
G1 X143.358 Y101.788 E1.55678
G1 X142.881 Y101.96 E1.56689
G1 X142.212 Y102.184 E1.58097
G1 X141.585 Y102.373 E1.59404
G1 X141.296 Y102.451 E1.60002
G1 X140.83 Y102.566 E1.60959
G1 X140.177 Y102.712 E1.62295
G1 X139.543 Y102.834 E1.63583
G1 X139.254 Y102.881 E1.64167
G1 X138.78 Y102.948 E1.65123
G1 X138.095 Y103.029 E1.66499
G1 X137.475 Y103.084 E1.67741
G1 X137.23 Y103.099 E1.68231
G1 X136.724 Y103.119 E1.69242
G1 X135.996 Y103.13 E1.70695
G1 X135.352 Y103.121 E1.7198
G1 X135.076 Y103.109 E1.72531
G1 X134.569 Y103.075 E1.73545
G1 X133.846 Y103.01 E1.74994
G1 X133.211 Y102.934 E1.7627
G1 X132.976 Y102.899 E1.76745
G1 X132.526 Y102.823 E1.77655
G1 X131.837 Y102.691 E1.79055
G1 X131.163 Y102.539 E1.80434
G1 X130.868 Y102.463 E1.81042
G1 X130.425 Y102.339 E1.8196
G1 X129.761 Y102.138 E1.83344
G1 X129.122 Y101.923 E1.8469
G1 X128.874 Y101.831 E1.85218
G1 X128.437 Y101.658 E1.86156
G1 X127.79 Y101.386 E1.87556
G1 X127.22 Y101.127 E1.88806
G1 X126.944 Y100.992 E1.89419
G1 X126.47 Y100.746 E1.90485
G1 X125.869 Y100.415 E1.91854
G1 X125.367 Y100.121 E1.93015
G1 X125.129 Y99.973 E1.93574
G1 X124.66 Y99.664 E1.94695
G1 X124.073 Y99.256 E1.96122
G1 X123.649 Y98.947 E1.97169
G1 X123.485 Y98.821 E1.97581
G1 X123.046 Y98.465 E1.98709
G1 X122.459 Y97.964 E2.00249
G1 X121.882 Y97.435 E2.01811
G1 X121.622 Y97.179 E2.0254
G1 X121.358 Y96.909 E2.03293
G1 X120.974 Y96.504 E2.04407
G1 X120.569 Y96.053 E2.05617
G1 X120.356 Y95.802 E2.06273
G1 X120.031 Y95.401 E2.07304
G1 X119.617 Y94.864 E2.08657
G1 X119.241 Y94.346 E2.09934
G1 X119.093 Y94.129 E2.10458
G1 X118.826 Y93.717 E2.11438
G1 X118.445 Y93.101 E2.12883
G1 X118.14 Y92.576 E2.14095
G1 X118.024 Y92.363 E2.14579
G1 X117.797 Y91.924 E2.15565
G1 X117.478 Y91.27 E2.17017
G1 X117.207 Y90.668 E2.18335
G1 X117.121 Y90.461 E2.18782
G1 X116.948 Y90.02 E2.19728
G1 X116.685 Y89.301 E2.21255
G1 X116.467 Y88.639 E2.22646
G1 X116.402 Y88.419 E2.23104
G1 X116.283 Y87.984 E2.24004
G1 X116.099 Y87.252 E2.2551
G1 X115.96 Y86.621 E2.268
G1 X115.919 Y86.405 E2.27238
G1 X115.838 Y85.922 E2.28216
G1 X115.735 Y85.207 E2.29657
G1 X115.667 Y84.627 E2.30823
G1 X115.644 Y84.372 E2.31334
G1 X115.609 Y83.824 E2.3243
G1 X115.579 Y83.074 E2.33927
G1 X115.572 Y82.43 E2.35213
G1 X115.576 Y82.214 E2.35644
G1 X115.595 Y81.746 E2.36579
G1 X115.641 Y80.994 E2.38082
G1 X115.702 Y80.322 E2.39429
G1 X115.734 Y80.062 E2.39951
G1 X115.803 Y79.592 E2.40899
G1 X115.916 Y78.916 E2.42267
G1 X116.035 Y78.308 E2.43503
G1 X116.093 Y78.051 E2.44029
G1 X116.212 Y77.575 E2.45008
G1 X116.404 Y76.872 E2.46463
G1 X116.596 Y76.242 E2.47777
G1 X116.681 Y75.991 E2.48306
G1 X116.846 Y75.538 E2.49268
G1 X117.103 Y74.876 E2.50685
G1 X117.377 Y74.231 E2.52084
G1 X117.485 Y73.998 E2.52596
G1 X117.68 Y73.599 E2.53482
G1 X118.023 Y72.931 E2.54981
G1 X118.354 Y72.333 E2.56345
G1 X118.489 Y72.106 E2.56872
G0 F6000 X118.832 Y72.311
G1 F1200 X119.07 Y71.929 E2.5777
G1 X119.455 Y71.34 E2.59174
G1 X119.817 Y70.821 E2.60437
G1 X119.964 Y70.623 E2.60929
G1 X120.241 Y70.267 E2.61829
G1 X120.695 Y69.707 E2.63268
G1 X121.101 Y69.235 E2.6451
G1 X121.29 Y69.028 E2.6507
G1 X121.607 Y68.695 E2.65987
G1 X122.09 Y68.21 E2.67353
G1 X122.559 Y67.767 E2.68641
G1 X122.748 Y67.599 E2.69145
G1 X123.083 Y67.314 E2.70023
G1 X123.657 Y66.845 E2.71502
G1 X124.175 Y66.447 E2.72806
G1 X124.353 Y66.319 E2.73244
G1 X124.707 Y66.075 E2.74102
G1 X125.341 Y65.657 E2.75617
G1 X125.913 Y65.306 E2.76956
G1 X126.142 Y65.175 E2.77483
G1 X126.514 Y64.972 E2.78328
G1 X127.135 Y64.649 E2.79725
G1 X127.736 Y64.36 E2.81056
G1 X127.971 Y64.256 E2.81569
G1 X128.376 Y64.087 E2.82445
G1 X129.069 Y63.814 E2.83931
G1 X129.664 Y63.6 E2.85193
G1 X129.86 Y63.536 E2.85604
G1 X130.299 Y63.403 E2.8652
G1 X131.033 Y63.198 E2.88041
G1 X131.629 Y63.05 E2.89266
G1 X131.9 Y62.991 E2.8982
G1 X132.4 Y62.894 E2.90836
G1 X133.073 Y62.781 E2.92198
G1 X133.638 Y62.702 E2.93336
G1 X133.93 Y62.669 E2.93923
G1 X134.433 Y62.624 E2.94931
G1 X135.126 Y62.579 E2.96316
G1 X135.72 Y62.557 E2.97503
G1 X135.949 Y62.555 E2.9796
G1 X136.434 Y62.562 E2.98928
G1 X137.19 Y62.59 E3.00437
G1 X137.815 Y62.632 E3.01687
G1 X138.064 Y62.656 E3.02187
G1 X138.523 Y62.71 E3.03109
G1 X139.234 Y62.81 E3.04542
G1 X139.875 Y62.921 E3.0584
G1 X140.135 Y62.974 E3.0637
G1 X140.592 Y63.077 E3.07304
G1 X141.295 Y63.253 E3.08751
G1 X141.864 Y63.413 E3.0993
G1 X142.083 Y63.481 E3.10388
G1 X142.509 Y63.623 E3.11284
G1 X143.197 Y63.869 E3.12742
G1 X143.815 Y64.112 E3.14067
G1 X144.022 Y64.201 E3.14517
G1 X144.426 Y64.385 E3.15403
G1 X145.092 Y64.705 E3.16877
G1 X145.615 Y64.974 E3.18051
G1 X145.871 Y65.115 E3.18634
G1 X146.316 Y65.375 E3.19663
G1 X146.894 Y65.731 E3.21017
G1 X147.422 Y66.078 E3.22278
G1 X147.643 Y66.233 E3.22817
G1 X147.997 Y66.493 E3.23693
G1 X148.559 Y66.923 E3.25106
G1 X149.028 Y67.303 E3.2631
G1 X149.256 Y67.499 E3.2691
G1 X149.647 Y67.852 E3.27961
G1 X150.147 Y68.327 E3.29338
G1 X150.552 Y68.734 E3.30484
G1 X150.756 Y68.95 E3.31077
G1 X151.102 Y69.335 E3.32109
G1 X151.56 Y69.87 E3.33515
G1 X151.912 Y70.302 E3.34627
G1 X152.045 Y70.475 E3.35062
G1 X152.351 Y70.894 E3.36098
G1 X152.77 Y71.498 E3.37565
G1 X153.112 Y72.024 E3.38817
G1 X153.254 Y72.257 E3.39361
G1 X153.491 Y72.667 E3.40306
G1 X153.834 Y73.291 E3.41727
G1 X154.085 Y73.777 E3.42819
G1 X154.193 Y74 E3.43314
G1 X154.414 Y74.486 E3.44379
G1 X154.691 Y75.14 E3.45796
G1 X154.911 Y75.704 E3.47004
G1 X155.009 Y75.978 E3.47585
G1 X155.163 Y76.441 E3.48559
G1 X155.365 Y77.1 E3.49934
G1 X155.518 Y77.654 E3.51081
G1 X155.587 Y77.932 E3.51653
G1 X155.697 Y78.427 E3.52665
G1 X155.832 Y79.109 E3.54052
G1 X155.939 Y79.747 E3.55343
G1 X155.979 Y80.043 E3.55939
G1 X156.029 Y80.486 E3.56829
G1 X156.089 Y81.134 E3.58128
G1 X156.115 Y81.479 E3.58818
G1 X156.127 Y81.68 E3.5922
G1 X156.145 Y82.157 E3.60173
G1 X156.151 Y82.566 E3.60989
G1 X156.146 Y83.091 E3.62037
G1 X156.132 Y83.492 E3.62837
G1 X156.113 Y83.856 E3.63565
G1 X156.098 Y84.072 E3.63997
G1 X156.055 Y84.534 E3.64923
G1 X155.967 Y85.309 E3.66479
G1 X155.877 Y85.939 E3.67749
G1 X155.838 Y86.162 E3.68201
G1 X155.748 Y86.615 E3.69123
G1 X155.591 Y87.328 E3.7058
G1 X155.439 Y87.934 E3.71826
G1 X155.353 Y88.238 E3.72457
G1 X155.212 Y88.695 E3.73411
G1 X155.01 Y89.303 E3.7469
G1 X154.807 Y89.863 E3.75879
G1 X154.71 Y90.108 E3.76404
G1 X154.523 Y90.55 E3.77362
G1 X154.222 Y91.22 E3.78828
G1 X153.935 Y91.81 E3.80137
G1 X153.793 Y92.08 E3.80746
G1 X153.57 Y92.482 E3.81663
G1 X153.228 Y93.069 E3.83019
G1 X152.906 Y93.587 E3.84236
G1 X152.749 Y93.824 E3.84804
G1 X152.476 Y94.216 E3.85757
G1 X152.069 Y94.774 E3.87135
G1 X151.713 Y95.235 E3.88298
G1 X151.579 Y95.399 E3.8872
G1 X151.266 Y95.766 E3.89683
G1 X150.749 Y96.343 E3.91229
G1 X150.292 Y96.821 E3.92549
G1 X150.094 Y97.016 E3.93103
G1 X149.77 Y97.322 E3.93993
G1 X149.274 Y97.771 E3.95328
G1 X148.839 Y98.144 E3.96471
G1 X148.648 Y98.299 E3.96962
G1 X148.248 Y98.608 E3.97971
G1 X147.636 Y99.058 E3.99487
G1 X147.119 Y99.415 E4.00741
G1 X146.926 Y99.54 E4.01199
G1 X146.503 Y99.8 E4.0219
G1 X145.829 Y100.193 E4.03747
G1 X145.266 Y100.499 E4.05026
G1 X145.054 Y100.606 E4.055
G1 X144.653 Y100.798 E4.06387
G1 X144.024 Y101.083 E4.07765
G1 X143.474 Y101.314 E4.08956
G1 X143.213 Y101.415 E4.09514
G1 X142.754 Y101.581 E4.10488
G1 X142.085 Y101.805 E4.11896
G1 X141.481 Y101.987 E4.13155
G1 X141.192 Y102.065 E4.13752
G1 X140.743 Y102.176 E4.14675
G1 X140.09 Y102.322 E4.16011
G1 X139.479 Y102.44 E4.17253
G1 X139.19 Y102.487 E4.17837
G1 X138.733 Y102.551 E4.18758
G1 X138.048 Y102.632 E4.20134
G1 X137.451 Y102.685 E4.2133
G1 X137.206 Y102.7 E4.2182
G1 X136.718 Y102.719 E4.22795
G1 X135.99 Y102.73 E4.24248
G1 X135.37 Y102.721 E4.25485
G1 X135.094 Y102.709 E4.26036
G1 X134.605 Y102.676 E4.27015
G1 X133.882 Y102.611 E4.28463
G1 X133.27 Y102.538 E4.29693
G1 X133.035 Y102.503 E4.30167
G1 X132.602 Y102.43 E4.31044
G1 X131.913 Y102.298 E4.32444
G1 X131.263 Y102.152 E4.33773
G1 X130.968 Y102.076 E4.34381
G1 X130.541 Y101.956 E4.35266
G1 X129.877 Y101.755 E4.36651
G1 X129.261 Y101.548 E4.37947
G1 X129.013 Y101.456 E4.38475
G1 X128.592 Y101.29 E4.39378
G1 X127.945 Y101.018 E4.40779
G1 X127.396 Y100.768 E4.41983
G1 X127.12 Y100.633 E4.42596
G1 X126.663 Y100.396 E4.43623
G1 X126.062 Y100.065 E4.44993
G1 X125.578 Y99.782 E4.46111
G1 X125.34 Y99.634 E4.46671
G1 X124.888 Y99.336 E4.47751
G1 X124.301 Y98.928 E4.49178
G1 X123.893 Y98.63 E4.50186
G1 X123.729 Y98.504 E4.50599
G1 X123.306 Y98.161 E4.51685
G1 X122.719 Y97.66 E4.53226
G1 X122.163 Y97.15 E4.54731
G1 X121.903 Y96.894 E4.55459
G1 X121.648 Y96.634 E4.56186
G1 X121.264 Y96.229 E4.573
G1 X120.874 Y95.795 E4.58464
G1 X120.661 Y95.544 E4.59121
G1 X120.348 Y95.157 E4.60115
G1 X119.934 Y94.62 E4.61468
G1 X119.572 Y94.121 E4.62698
G1 X119.424 Y93.904 E4.63222
G1 X119.166 Y93.507 E4.64167
G1 X118.785 Y92.891 E4.65612
G1 X118.491 Y92.385 E4.6678
G1 X118.375 Y92.172 E4.67264
G1 X118.157 Y91.749 E4.68214
G1 X117.838 Y91.095 E4.69666
G1 X117.576 Y90.515 E4.70936
G1 X117.49 Y90.308 E4.71383
G1 X117.324 Y89.882 E4.72296
G1 X117.061 Y89.163 E4.73824
G1 X116.85 Y88.525 E4.75165
G1 X116.785 Y88.305 E4.75622
G1 X116.671 Y87.886 E4.76489
G1 X116.487 Y87.154 E4.77995
G1 X116.353 Y86.547 E4.79236
G1 X116.312 Y86.331 E4.79674
G1 X116.234 Y85.865 E4.80617
G1 X116.131 Y85.15 E4.82059
G1 X116.066 Y84.591 E4.83182
G1 X116.043 Y84.336 E4.83693
G1 X116.008 Y83.808 E4.84749
G1 X115.978 Y83.058 E4.86247
G1 X115.972 Y82.438 E4.87484
G1 X115.976 Y82.222 E4.87915
G1 X115.994 Y81.771 E4.88816
G1 X116.04 Y81.019 E4.9032
G1 X116.099 Y80.371 E4.91618
G1 X116.131 Y80.111 E4.92141
G1 X116.197 Y79.658 E4.93054
G1 X116.31 Y78.982 E4.94422
G1 X116.425 Y78.396 E4.95614
G1 X116.483 Y78.139 E4.9614
G1 X116.598 Y77.68 E4.97084
G1 X116.79 Y76.977 E4.98538
G1 X116.975 Y76.37 E4.99805
G1 X117.06 Y76.119 E5.00333
G1 X117.219 Y75.683 E5.0126
G1 X117.476 Y75.021 E5.02677
G1 X117.74 Y74.399 E5.04025
G1 X117.848 Y74.166 E5.04538
G1 X118.035 Y73.782 E5.0539
G1 X118.378 Y73.114 E5.06888
G1 X118.697 Y72.538 E5.08202
G1 X118.832 Y72.311 E5.0873
G0 F6000 X119.176 Y72.515
G1 F1200 X119.405 Y72.148 E5.09593
G1 X119.79 Y71.559 E5.10997
G1 X120.138 Y71.06 E5.12211
G1 X120.285 Y70.862 E5.12703
G1 X120.552 Y70.518 E5.13572
G1 X121.006 Y69.958 E5.15011
G1 X121.396 Y69.504 E5.16205
G1 X121.585 Y69.297 E5.16765
G1 X121.891 Y68.977 E5.17648
G1 X122.374 Y68.492 E5.19014
G1 X122.824 Y68.066 E5.20251
G1 X123.013 Y67.898 E5.20755
G1 X123.336 Y67.623 E5.21602
G1 X123.91 Y67.154 E5.23081
G1 X124.409 Y66.772 E5.24335
G1 X124.587 Y66.644 E5.24773
G1 X124.928 Y66.409 E5.25599
G1 X125.562 Y65.991 E5.27115
G1 X126.111 Y65.653 E5.28401
G1 X126.34 Y65.522 E5.28928
G1 X126.698 Y65.327 E5.29741
G1 X127.319 Y65.004 E5.31138
G1 X127.898 Y64.726 E5.3242
G1 X128.133 Y64.622 E5.32933
G1 X128.522 Y64.459 E5.33774
G1 X129.215 Y64.186 E5.35261
