;FLAVOR:Marlin
;TIME:1604
;Filament used: 0.487166m
;Layer height: 0.12
;MINX:85
;MINY:49.075
;MINZ:0.12
;MAXX:135
;MAXY:86.022
;MAXZ:6.96
;Generated with Cura_SteamEngine 4.4.1
M140 S60
M105
M190 S60
M104 S210
M105
M109 S210
M82 ;absolute extrusion mode
M201 X500.00 Y500.00 Z100.00 E5000.00 ;Setup machine max acceleration
M203 X500.00 Y500.00 Z10.00 E50.00 ;Setup machine max feedrate
M204 P500.00 R1000.00 T500.00 ;Setup Print/Retract/Travel acceleration
M205 X8.00 Y8.00 Z0.40 E5.00 ;Setup Jerk
M220 S100 ;Reset Feedrate
M221 S100 ;Reset Flowrate

G28 ;Home

G92 E0 ;Reset Extruder
G1 Z2.0 F3000 ;Move Z Axis up
G1 X10.1 Y20 Z0.28 F5000.0 ;Move to start position
G1 X10.1 Y200.0 Z0.28 F1500.0 E15 ;Draw the first line
G1 X10.4 Y200.0 Z0.28 F5000.0 ;Move to side a little
G1 X10.4 Y20 Z0.28 F1500.0 E30 ;Draw the second line
G92 E0 ;Reset Extruder
G1 Z2.0 F3000 ;Move Z Axis up

G92 E0
G92 E0
G1 F1500 E-6.5
;LAYER_COUNT:58
;LAYER:0
M107
G0 F6000 X87.418 Y55.925 Z0.12
;TYPE:SKIRT
G1 F1500 E0
G1 F1200 X87.649 Y55.575 E0.00837
G1 X88.199 Y54.815 E0.02709
G1 X88.664 Y54.264 E0.04148
G1 X89.099 Y53.782 E0.05444
G1 X89.756 Y53.113 E0.07315
G1 X90.184 Y52.735 E0.08454
G1 X90.373 Y52.576 E0.08947
G1 X90.72 Y52.295 E0.09838
G1 X91.039 Y52.048 E0.10643
G1 X92.148 Y51.293 E0.13321
G1 X92.348 Y51.174 E0.13785
G1 X92.745 Y50.949 E0.14696
G1 X93.106 Y50.754 E0.15515
G1 X94.192 Y50.241 E0.17911
G1 X94.379 Y50.165 E0.18314
G1 X94.955 Y49.95 E0.19541
G1 X95.381 Y49.804 E0.2044
G1 X96.28 Y49.538 E0.22311
G1 X96.924 Y49.398 E0.23626
G1 X97.576 Y49.276 E0.2495
G1 X98.504 Y49.143 E0.26821
G1 X99.052 Y49.102 E0.27917
G1 X99.273 Y49.091 E0.28359
G1 X99.768 Y49.077 E0.29347
G1 X100.191 Y49.075 E0.30191
G1 X101.11 Y49.109 E0.32026
G1 X102.071 Y49.185 E0.3395
G1 X102.235 Y49.199 E0.34279
G1 X102.883 Y49.26 E0.35577
G1 X105.393 Y49.426 E0.40597
G1 X107.905 Y49.521 E0.45614
G1 X110.397 Y49.544 E0.50587
G1 X112.926 Y49.496 E0.55635
G1 X115.444 Y49.377 E0.60666
G1 X117.986 Y49.185 E0.65753
G1 X118.15 Y49.169 E0.66082
G1 X118.38 Y49.148 E0.66543
G1 X118.835 Y49.112 E0.67453
G1 X119.403 Y49.082 E0.68588
G1 X119.623 Y49.076 E0.69028
G1 X120.232 Y49.076 E0.70243
G1 X120.695 Y49.089 E0.71167
G1 X121.63 Y49.156 E0.73038
G1 X122.136 Y49.225 E0.74057
G1 X122.409 Y49.269 E0.74609
G1 X122.761 Y49.332 E0.75323
G1 X123.1 Y49.398 E0.76012
G1 X124.23 Y49.68 E0.78336
G1 X124.461 Y49.751 E0.78818
G1 X125.069 Y49.958 E0.801
G1 X125.477 Y50.11 E0.80969
G1 X126.341 Y50.475 E0.82841
G1 X126.957 Y50.79 E0.84221
G1 X127.518 Y51.1 E0.855
G1 X128.319 Y51.588 E0.87372
G1 X128.751 Y51.893 E0.88427
G1 X128.96 Y52.048 E0.88947
G1 X129.327 Y52.332 E0.89873
G1 X129.631 Y52.578 E0.90653
G1 X130.62 Y53.484 E0.9333
G1 X130.765 Y53.634 E0.93746
G1 X131.096 Y53.992 E0.94719
G1 X131.394 Y54.329 E0.95617
G1 X131.985 Y55.058 E0.9749
G1 X132.364 Y55.602 E0.98813
G1 X132.714 Y56.138 E1.0009
G1 X133.193 Y56.944 E1.01961
G1 X133.464 Y57.482 E1.03164
G1 X133.577 Y57.723 E1.03695
G1 X133.758 Y58.131 E1.04585
G1 X133.911 Y58.495 E1.05373
G1 X134.237 Y59.374 E1.07244
G1 X134.426 Y60.026 E1.08599
G1 X134.588 Y60.658 E1.09901
G1 X134.781 Y61.575 E1.11771
G1 X134.885 Y62.375 E1.13381
G1 X134.921 Y62.764 E1.14161
G1 X134.945 Y63.061 E1.14755
G1 X134.965 Y63.367 E1.15367
G1 X134.981 Y63.698 E1.16029
G1 X134.99 Y63.954 E1.1654
G1 X134.996 Y64.215 E1.17061
G1 X134.999 Y64.479 E1.17588
G1 X135 Y64.604 E1.17837
G1 X135 Y67.319 E1.23255
G1 X134.999 Y67.469 E1.23554
G1 X134.989 Y68.204 E1.25021
G1 X134.955 Y68.93 E1.26472
G1 X134.905 Y69.556 E1.27725
G1 X134.791 Y70.487 E1.29597
G1 X134.635 Y71.254 E1.31159
G1 X134.493 Y71.844 E1.3237
G1 X134.148 Y72.996 E1.3477
G1 X134.076 Y73.196 E1.35194
G1 X133.813 Y73.858 E1.36615
G1 X133.639 Y74.258 E1.37486
G1 X133.229 Y75.101 E1.39357
G1 X132.92 Y75.635 E1.40588
G1 X132.584 Y76.181 E1.41867
G1 X132.059 Y76.958 E1.43738
G1 X131.534 Y77.614 E1.45415
G1 X131.116 Y78.097 E1.4669
G1 X130.472 Y78.78 E1.48563
G1 X129.854 Y79.338 E1.50225
G1 X129.366 Y79.746 E1.51494
G1 X128.621 Y80.316 E1.53366
G1 X127.957 Y80.747 E1.54946
G1 X127.412 Y81.073 E1.56213
G1 X126.587 Y81.52 E1.58086
G1 X125.83 Y81.855 E1.59738
G1 X125.234 Y82.092 E1.61018
G1 X124.544 Y82.339 E1.6248
G1 X123.964 Y82.526 E1.63696
G1 X123.796 Y82.579 E1.64048
G1 X121.844 Y83.174 E1.6812
G1 X121.701 Y83.217 E1.68418
G1 X121.399 Y83.305 E1.69046
G1 X119.305 Y83.936 E1.73411
G1 X118.174 Y84.291 E1.75776
G1 X118.084 Y84.319 E1.75964
G1 X115.378 Y85.143 E1.81609
G1 X115.23 Y85.187 E1.81917
G1 X114.815 Y85.307 E1.82779
G1 X114.451 Y85.406 E1.83532
G1 X113.615 Y85.617 E1.85253
G1 X112.256 Y85.87 E1.88011
G1 X111.691 Y85.939 E1.89147
G1 X111.099 Y85.995 E1.90334
G1 X110.862 Y86.011 E1.90808
G1 X109.57 Y86.022 E1.93386
G1 X108.812 Y85.984 E1.94901
G1 X107.878 Y85.897 E1.96773
G1 X107.271 Y85.797 E1.98001
G1 X106.667 Y85.68 E1.99228
G1 X106.154 Y85.568 E2.00276
G1 X105.953 Y85.519 E2.00689
G1 X105.709 Y85.457 E2.01192
G1 X105.392 Y85.372 E2.01847
G1 X105.038 Y85.27 E2.02582
G1 X102.147 Y84.39 E2.08612
G1 X101.99 Y84.341 E2.08941
G1 X101.689 Y84.245 E2.09571
G1 X96.303 Y82.609 E2.20804
G1 X96.14 Y82.558 E2.21145
G1 X95.479 Y82.346 E2.2253
G1 X94.819 Y82.112 E2.23928
G1 X94.233 Y81.882 E2.25184
G1 X93.375 Y81.502 E2.27057
G1 X92.676 Y81.124 E2.28643
G1 X92.137 Y80.807 E2.2989
G1 X91.349 Y80.297 E2.31764
G1 X90.695 Y79.795 E2.33409
G1 X90.205 Y79.389 E2.34679
G1 X89.216 Y78.461 E2.37385
G1 X89.07 Y78.306 E2.3781
G1 X88.685 Y77.875 E2.38964
G1 X88.413 Y77.554 E2.39803
G1 X87.837 Y76.813 E2.41676
G1 X87.491 Y76.295 E2.42919
G1 X87.153 Y75.757 E2.44187
G1 X86.688 Y74.942 E2.4606
G1 X86.342 Y74.205 E2.47684
G1 X86.091 Y73.614 E2.48966
G1 X85.762 Y72.736 E2.50837
G1 X85.536 Y71.949 E2.52471
G1 X85.383 Y71.329 E2.53745
G1 X85.198 Y70.41 E2.55616
G1 X85.113 Y69.739 E2.56966
G1 X85.086 Y69.456 E2.57533
G1 X85.057 Y69.091 E2.58264
G1 X85.03 Y68.655 E2.59136
G1 X85.011 Y68.168 E2.60108
G1 X85.002 Y67.654 E2.61134
G1 X85 Y67.461 E2.61519
G1 X85 Y64.763 E2.66903
G1 X85.001 Y64.607 E2.67215
G1 X85.011 Y63.901 E2.68624
G1 X85.025 Y63.479 E2.69466
G1 X85.037 Y63.251 E2.69922
G1 X85.071 Y62.79 E2.70845
G1 X85.11 Y62.379 E2.71668
G1 X85.316 Y61.065 E2.74323
G1 X85.369 Y60.823 E2.74817
G1 X85.483 Y60.352 E2.75784
G1 X85.585 Y59.968 E2.76577
G1 X85.959 Y58.818 E2.7899
G1 X86.033 Y58.627 E2.79399
G1 X86.257 Y58.091 E2.80558
G1 X86.426 Y57.715 E2.81381
G1 X86.947 Y56.7 E2.83658
G1 X87.087 Y56.459 E2.84214
G1 X87.418 Y55.925 E2.85468
G0 F6000 X87.752 Y56.145
G1 F1200 X87.983 Y55.795 E2.86305
G1 X88.523 Y55.049 E2.88142
G1 X88.961 Y54.532 E2.89495
G1 X89.396 Y54.05 E2.9079
G1 X90.042 Y53.394 E2.92628
G1 X90.441 Y53.041 E2.93691
G1 X90.63 Y52.882 E2.94184
G1 X90.964 Y52.612 E2.95041
G1 X91.283 Y52.365 E2.95846
G1 X92.353 Y51.637 E2.98429
G1 X92.553 Y51.518 E2.98893
G1 X92.935 Y51.301 E2.9977
G1 X93.296 Y51.106 E3.00589
G1 X94.343 Y50.612 E3.02899
G1 X94.53 Y50.536 E3.03302
G1 X95.084 Y50.329 E3.04482
G1 X95.51 Y50.183 E3.05381
G1 X96.393 Y49.922 E3.07218
G1 X96.997 Y49.791 E3.08451
G1 X97.649 Y49.669 E3.09775
G1 X98.561 Y49.539 E3.11614
G1 X99.072 Y49.501 E3.12636
G1 X99.293 Y49.49 E3.13078
G1 X99.77 Y49.477 E3.1403
G1 X100.193 Y49.475 E3.14874
G1 X101.079 Y49.508 E3.16643
G1 X102.04 Y49.584 E3.18567
G1 X102.198 Y49.598 E3.18884
G1 X102.82 Y49.657 E3.20131
G1 X105.353 Y49.824 E3.25196
G1 X107.887 Y49.919 E3.30257
G1 X110.436 Y49.944 E3.35344
G1 X112.951 Y49.896 E3.40364
G1 X115.459 Y49.778 E3.45374
G1 X118.017 Y49.584 E3.50494
G1 X118.19 Y49.567 E3.50841
G1 X118.412 Y49.547 E3.51285
G1 X118.867 Y49.511 E3.52196
G1 X119.414 Y49.482 E3.53289
G1 X119.634 Y49.476 E3.53729
G1 X120.221 Y49.476 E3.549
G1 X120.684 Y49.489 E3.55824
G1 X121.602 Y49.555 E3.57661
G1 X122.073 Y49.62 E3.5861
G1 X122.346 Y49.664 E3.59162
G1 X122.685 Y49.724 E3.59849
G1 X123.024 Y49.79 E3.60538
G1 X124.112 Y50.063 E3.62776
G1 X124.343 Y50.134 E3.63259
G1 X124.93 Y50.333 E3.64496
G1 X125.338 Y50.485 E3.65365
G1 X126.186 Y50.843 E3.67201
G1 X126.764 Y51.14 E3.68498
G1 X127.325 Y51.45 E3.69777
G1 X128.11 Y51.93 E3.71614
G1 X128.512 Y52.214 E3.72596
G1 X128.721 Y52.369 E3.73115
G1 X129.075 Y52.643 E3.74008
G1 X129.379 Y52.889 E3.74789
G1 X130.332 Y53.762 E3.77368
G1 X130.477 Y53.912 E3.77784
G1 X130.797 Y54.257 E3.78723
G1 X131.095 Y54.594 E3.79621
G1 X131.674 Y55.31 E3.81459
G1 X132.029 Y55.821 E3.827
G1 X132.379 Y56.357 E3.83978
G1 X132.849 Y57.149 E3.85816
G1 X133.101 Y57.652 E3.86938
G1 X133.214 Y57.893 E3.8747
G1 X133.389 Y58.286 E3.88328
G1 X133.542 Y58.65 E3.89116
G1 X133.861 Y59.513 E3.90952
G1 X134.038 Y60.125 E3.92224
G1 X134.2 Y60.757 E3.93526
G1 X134.39 Y61.658 E3.95363
G1 X134.487 Y62.412 E3.9688
G1 X134.523 Y62.801 E3.9766
G1 X134.545 Y63.087 E3.98232
G1 X134.565 Y63.393 E3.98844
G1 X134.581 Y63.712 E3.99482
G1 X134.59 Y63.968 E3.99993
G1 X134.596 Y64.22 E4.00496
G1 X134.599 Y64.484 E4.01023
G1 X134.6 Y64.604 E4.01262
G1 X134.6 Y67.319 E4.0668
G1 X134.599 Y67.463 E4.06968
G1 X134.589 Y68.198 E4.08435
G1 X134.556 Y68.898 E4.09833
G1 X134.506 Y69.524 E4.11086
G1 X134.393 Y70.438 E4.12924
G1 X134.246 Y71.16 E4.14395
G1 X134.104 Y71.75 E4.15606
G1 X133.771 Y72.86 E4.17918
G1 X133.699 Y73.06 E4.18342
G1 X133.446 Y73.698 E4.19712
G1 X133.272 Y74.098 E4.20583
G1 X132.869 Y74.926 E4.2242
G1 X132.58 Y75.425 E4.23571
G1 X132.244 Y75.971 E4.2485
G1 X131.727 Y76.734 E4.2669
G1 X131.231 Y77.353 E4.28273
G1 X130.813 Y77.836 E4.29547
G1 X130.181 Y78.505 E4.31384
G1 X129.597 Y79.031 E4.32952
G1 X129.109 Y79.439 E4.34222
G1 X128.378 Y79.999 E4.36059
G1 X127.751 Y80.404 E4.37549
G1 X127.206 Y80.73 E4.38816
G1 X126.397 Y81.168 E4.40652
G1 X125.682 Y81.483 E4.42211
G1 X125.086 Y81.72 E4.43491
G1 X124.422 Y81.959 E4.449
G1 X123.842 Y82.146 E4.46116
G1 X123.68 Y82.196 E4.46454
G1 X121.728 Y82.791 E4.50527
G1 X121.589 Y82.833 E4.50816
G1 X121.269 Y82.926 E4.51481
G1 X119.252 Y83.534 E4.55685
G1 X118.054 Y83.91 E4.58191
G1 X117.968 Y83.936 E4.5837
G1 X115.262 Y84.76 E4.64015
G1 X115.118 Y84.803 E4.64315
G1 X114.703 Y84.923 E4.65177
G1 X114.353 Y85.018 E4.65901
G1 X113.517 Y85.229 E4.67622
G1 X112.208 Y85.473 E4.70279
G1 X111.643 Y85.542 E4.71415
G1 X111.072 Y85.596 E4.72559
G1 X110.835 Y85.612 E4.73033
G1 X109.59 Y85.623 E4.75518
G1 X108.832 Y85.585 E4.77033
G1 X107.916 Y85.499 E4.78869
G1 X107.347 Y85.405 E4.8002
G1 X106.743 Y85.288 E4.81247
G1 X106.248 Y85.179 E4.82259
G1 X106.047 Y85.13 E4.82672
G1 X105.813 Y85.07 E4.83154
G1 X105.496 Y84.985 E4.83809
G1 X105.154 Y84.888 E4.84518
G1 X102.263 Y84.008 E4.90549
G1 X102.112 Y83.96 E4.90865
G1 X101.859 Y83.879 E4.91395
G1 X96.419 Y82.227 E5.02741
G1 X96.262 Y82.178 E5.03069
G1 X95.601 Y81.966 E5.04454
G1 X94.965 Y81.739 E5.05802
G1 X94.379 Y81.509 E5.07058
G1 X93.538 Y81.136 E5.08894
G1 X92.878 Y80.779 E5.10392
G1 X92.339 Y80.462 E5.11639
G1 X91.567 Y79.961 E5.13476
G1 X90.95 Y79.487 E5.15029
G1 X90.46 Y79.081 E5.16299
G1 X89.507 Y78.187 E5.18906
G1 X89.361 Y78.032 E5.19331
G1 X88.99 Y77.617 E5.20442
G1 X88.718 Y77.296 E5.21282
G1 X88.154 Y76.568 E5.23119
G1 X87.829 Y76.082 E5.24286
G1 X87.491 Y75.544 E5.25554
G1 X87.036 Y74.744 E5.27391
G1 X86.71 Y74.049 E5.28923
G1 X86.459 Y73.458 E5.30204
G1 X86.137 Y72.595 E5.32042
G1 X85.925 Y71.854 E5.3358
G1 X85.772 Y71.234 E5.34855
G1 X85.59 Y70.331 E5.36693
G1 X85.511 Y69.701 E5.3796
G1 X85.484 Y69.418 E5.38527
G1 X85.456 Y69.066 E5.39232
G1 X85.429 Y68.63 E5.40104
G1 X85.411 Y68.161 E5.4104
G1 X85.402 Y67.647 E5.42066
G1 X85.4 Y67.461 E5.42438
G1 X85.4 Y64.763 E5.47822
G1 X85.401 Y64.613 E5.48121
G1 X85.411 Y63.907 E5.4953
G1 X85.425 Y63.5 E5.50343
G1 X85.437 Y63.272 E5.50798
G1 X85.469 Y62.828 E5.51687
G1 X85.508 Y62.417 E5.52511
G1 X85.706 Y61.15 E5.5507
G1 X85.759 Y60.908 E5.55564
G1 X85.869 Y60.455 E5.56494
G1 X85.971 Y60.071 E5.57287
G1 X86.332 Y58.963 E5.59613
G1 X86.406 Y58.772 E5.60022
G1 X86.622 Y58.255 E5.6114
G1 X86.791 Y57.879 E5.61962
G1 X87.293 Y56.901 E5.64156
G1 X87.433 Y56.66 E5.64712
G1 X87.752 Y56.145 E5.65921
G0 F6000 X88.086 Y56.365
G1 F1200 X88.317 Y56.015 E5.66758
G1 X88.847 Y55.284 E5.6856
G1 X89.258 Y54.8 E5.69827
G1 X89.693 Y54.318 E5.71123
G1 X90.327 Y53.675 E5.72925
G1 X90.699 Y53.347 E5.73915
G1 X90.888 Y53.188 E5.74408
G1 X91.209 Y52.928 E5.75232
G1 X91.528 Y52.681 E5.76037
G1 X92.557 Y51.98 E5.78522
G1 X92.757 Y51.861 E5.78986
G1 X93.125 Y51.653 E5.7983
G1 X93.486 Y51.458 E5.80649
G1 X94.494 Y50.983 E5.82872
G1 X94.681 Y50.907 E5.83275
G1 X95.214 Y50.707 E5.84411
G1 X95.64 Y50.561 E5.8531
G1 X96.506 Y50.306 E5.87111
G1 X97.071 Y50.184 E5.88265
G1 X97.723 Y50.062 E5.89589
G1 X98.617 Y49.935 E5.91391
G1 X99.092 Y49.901 E5.92341
G1 X99.313 Y49.89 E5.92783
G1 X99.772 Y49.877 E5.93699
G1 X100.195 Y49.875 E5.94543
G1 X101.047 Y49.907 E5.96245
G1 X102.008 Y49.983 E5.98168
G1 X102.16 Y49.996 E5.98473
G1 X102.791 Y50.055 E5.99737
G1 X105.345 Y50.225 E6.04846
G1 X107.868 Y50.319 E6.09884
G1 X110.439 Y50.344 E6.15015
G1 X112.942 Y50.296 E6.20011
G1 X115.507 Y50.175 E6.25135
G1 X118.047 Y49.983 E6.30219
G1 X118.23 Y49.965 E6.30585
G1 X118.443 Y49.946 E6.31012
G1 X118.898 Y49.91 E6.31923
G1 X119.425 Y49.882 E6.32976
G1 X119.645 Y49.876 E6.33415
G1 X120.209 Y49.876 E6.34541
G1 X120.672 Y49.889 E6.35465
G1 X122.009 Y50.015 E6.38145
G1 X122.282 Y50.059 E6.38697
G1 X122.608 Y50.117 E6.39358
G1 X122.947 Y50.183 E6.40047
G1 X123.995 Y50.445 E6.42203
G1 X124.226 Y50.516 E6.42685
G1 X124.79 Y50.708 E6.43874
G1 X125.198 Y50.86 E6.44743
G1 X126.029 Y51.212 E6.46544
G1 X126.57 Y51.49 E6.47758
G1 X127.131 Y51.8 E6.49037
G1 X127.902 Y52.272 E6.50841
G1 X128.274 Y52.535 E6.5175
G1 X128.483 Y52.69 E6.52269
G1 X128.823 Y52.954 E6.53128
G1 X129.127 Y53.2 E6.53909
G1 X130.045 Y54.04 E6.56392
G1 X130.19 Y54.19 E6.56808
G1 X130.497 Y54.522 E6.57711
G1 X130.795 Y54.859 E6.58608
G1 X131.363 Y55.562 E6.60412
G1 X131.694 Y56.039 E6.61571
G1 X132.044 Y56.575 E6.62848
G1 X132.504 Y57.352 E6.6465
G1 X132.739 Y57.822 E6.65699
G1 X132.852 Y58.063 E6.6623
G1 X133.02 Y58.441 E6.67055
G1 X133.173 Y58.805 E6.67843
G1 X133.486 Y59.652 E6.69645
G1 X133.651 Y60.224 E6.70833
G1 X133.813 Y60.856 E6.72135
G1 X133.998 Y61.74 E6.73938
G1 X134.089 Y62.449 E6.75364
G1 X134.125 Y62.838 E6.76144
G1 X134.146 Y63.113 E6.76694
G1 X134.166 Y63.419 E6.77306
G1 X134.182 Y63.726 E6.7792
G1 X134.191 Y63.982 E6.78431
G1 X134.196 Y64.224 E6.78914
G1 X134.199 Y64.488 E6.79441
G1 X134.2 Y64.604 E6.79672
G1 X134.2 Y67.319 E6.8509
G1 X134.199 Y67.458 E6.85368
G1 X134.189 Y68.193 E6.86835
G1 X134.158 Y68.866 E6.88179
G1 X134.108 Y69.492 E6.89432
G1 X133.996 Y70.388 E6.91234
G1 X133.857 Y71.067 E6.92617
G1 X133.715 Y71.657 E6.93828
G1 X133.395 Y72.725 E6.96053
G1 X133.323 Y72.925 E6.96478
G1 X133.079 Y73.539 E6.97796
G1 X132.905 Y73.939 E6.98667
G1 X132.509 Y74.75 E7.00468
G1 X132.239 Y75.216 E7.01542
G1 X131.903 Y75.762 E7.02822
G1 X131.396 Y76.509 E7.04623
G1 X130.929 Y77.091 E7.06113
G1 X130.511 Y77.574 E7.07387
G1 X129.89 Y78.23 E7.0919
G1 X129.34 Y78.724 E7.10665
G1 X128.852 Y79.132 E7.11935
G1 X128.135 Y79.68 E7.13736
G1 X127.546 Y80.061 E7.15135
G1 X127.001 Y80.387 E7.16403
G1 X126.206 Y80.815 E7.18205
G1 X125.534 Y81.111 E7.1967
G1 X124.938 Y81.348 E7.2095
G1 X124.299 Y81.578 E7.22305
G1 X123.719 Y81.765 E7.23521
G1 X123.563 Y81.814 E7.23848
G1 X121.611 Y82.409 E7.2792
G1 X121.478 Y82.448 E7.28197
G1 X121.213 Y82.525 E7.28747
G1 X119.091 Y83.165 E7.3317
G1 X117.934 Y83.528 E7.3559
G1 X117.851 Y83.554 E7.35764
G1 X115.145 Y84.378 E7.41409
G1 X115.007 Y84.419 E7.41696
G1 X114.592 Y84.539 E7.42558
G1 X114.255 Y84.63 E7.43255
G1 X113.419 Y84.841 E7.44975
G1 X112.159 Y85.076 E7.47533
G1 X111.594 Y85.145 E7.48669
G1 X111.045 Y85.197 E7.4977
G1 X110.808 Y85.213 E7.50244
G1 X109.61 Y85.223 E7.52635
G1 X108.852 Y85.185 E7.54149
G1 X107.953 Y85.1 E7.55951
G1 X107.423 Y85.012 E7.57023
G1 X106.819 Y84.895 E7.58251
G1 X106.343 Y84.791 E7.59223
G1 X106.142 Y84.742 E7.59636
G1 X105.916 Y84.684 E7.60102
G1 X105.599 Y84.599 E7.60757
G1 X105.271 Y84.505 E7.61438
G1 X102.38 Y83.625 E7.67468
G1 X102.235 Y83.58 E7.67771
G1 X101.931 Y83.483 E7.68408
G1 X96.535 Y81.844 E7.79662
G1 X96.384 Y81.797 E7.79978
G1 X95.723 Y81.585 E7.81363
