; G-Code generated by Simplify3D(R) Version 4.1.1
; Nov 14, 2019 at 10:26:55 AM
; Settings Summary
;   processName,PLA
;   applyToModels,pipemouse_KettenRad_v3
;   profileName,Creality Ender 3 (PLA) (modified)
;   profileVersion,2019-05-28 16:44:14
;   baseProfile,Creality Ender 3
;   printMaterial,PLA
;   printQuality,Medium
;   printExtruders,
;   extruderName,Primary Extruder
;   extruderToolheadNumber,0
;   extruderDiameter,0.4
;   extruderAutoWidth,1
;   extruderWidth,0.48
;   extrusionMultiplier,1.15
;   extruderUseRetract,1
;   extruderRetractionDistance,4
;   extruderExtraRestartDistance,0
;   extruderRetractionZLift,0
;   extruderRetractionSpeed,2400
;   extruderUseCoasting,0
;   extruderCoastingDistance,0.2
;   extruderUseWipe,0
;   extruderWipeDistance,5
;   primaryExtruder,0
;   layerHeight,0.2
;   topSolidLayers,3
;   bottomSolidLayers,3
;   perimeterOutlines,2
;   printPerimetersInsideOut,1
;   startPointOption,2
;   startPointOriginX,0
;   startPointOriginY,0
;   sequentialIslands,0
;   spiralVaseMode,0
;   firstLayerHeightPercentage,120
;   firstLayerWidthPercentage,150
;   firstLayerUnderspeed,0.5
;   useRaft,0
;   raftExtruder,0
;   raftTopLayers,3
;   raftBaseLayers,2
;   raftOffset,3
;   raftSeparationDistance,0.14
;   raftTopInfill,100
;   aboveRaftSpeedMultiplier,0.3
;   useSkirt,1
;   skirtExtruder,0
;   skirtLayers,1
;   skirtOutlines,2
;   skirtOffset,4
;   usePrimePillar,0
;   primePillarExtruder,999
;   primePillarWidth,12
;   primePillarLocation,7
;   primePillarSpeedMultiplier,1
;   useOozeShield,0
;   oozeShieldExtruder,999
;   oozeShieldOffset,2
;   oozeShieldOutlines,1
;   oozeShieldSidewallShape,1
;   oozeShieldSidewallAngle,30
;   oozeShieldSpeedMultiplier,1
;   infillExtruder,0
;   internalInfillPattern,Rectilinear
;   externalInfillPattern,Rectilinear
;   infillPercentage,80
;   outlineOverlapPercentage,15
;   infillExtrusionWidthPercentage,100
;   minInfillLength,5
;   infillLayerInterval,1
;   internalInfillAngles,45,-45
;   overlapInternalInfillAngles,0
;   externalInfillAngles,45,-45
;   generateSupport,1
;   supportExtruder,0
;   supportInfillPercentage,30
;   supportExtraInflation,0
;   supportBaseLayers,0
;   denseSupportExtruder,0
;   denseSupportLayers,0
;   denseSupportInfillPercentage,70
;   supportLayerInterval,1
;   supportHorizontalPartOffset,0.3
;   supportUpperSeparationLayers,1
;   supportLowerSeparationLayers,1
;   supportType,0
;   supportGridSpacing,1.5
;   maxOverhangAngle,45
;   supportAngles,0
;   temperatureName,Primary Extruder,Heated Bed
;   temperatureNumber,0,0
;   temperatureSetpointCount,2,2
;   temperatureSetpointLayers,1,2,1,2
;   temperatureSetpointTemperatures,210,195,60,50
;   temperatureStabilizeAtStartup,1,1
;   temperatureHeatedBed,0,1
;   fanLayers,1,2
;   fanSpeeds,0,100
;   blipFanToFullPower,0
;   adjustSpeedForCooling,1
;   minSpeedLayerTime,15
;   minCoolingSpeedSlowdown,20
;   increaseFanForCooling,0
;   minFanLayerTime,45
;   maxCoolingFanSpeed,100
;   increaseFanForBridging,0
;   bridgingFanSpeed,100
;   use5D,1
;   relativeEdistances,0
;   allowEaxisZeroing,1
;   independentExtruderAxes,0
;   includeM10123,0
;   stickySupport,1
;   applyToolheadOffsets,0
;   gcodeXoffset,0
;   gcodeYoffset,0
;   gcodeZoffset,0
;   overrideMachineDefinition,1
;   machineTypeOverride,0
;   strokeXoverride,220
;   strokeYoverride,220
;   strokeZoverride,250
;   originOffsetXoverride,-5
;   originOffsetYoverride,-5
;   originOffsetZoverride,0
;   homeXdirOverride,-1
;   homeYdirOverride,-1
;   homeZdirOverride,-1
;   flipXoverride,1
;   flipYoverride,-1
;   flipZoverride,1
;   toolheadOffsets,0,0|0,0|0,0|0,0|0,0|0,0
;   overrideFirmwareConfiguration,1
;   firmwareTypeOverride,RepRap (Marlin/Repetier/Sprinter)
;   GPXconfigOverride,r2
;   baudRateOverride,115200
;   overridePrinterModels,1
;   printerModelsOverride
;   startingGcode,G28 ; home all axes,G1 X5 Y10 Z0.2 F3000 ; get ready to prime,G92 E0 ; reset extrusion distance,G1 X160 E15 F600 ; prime nozzle,G1 X180 F5000 ; quick wipe
;   layerChangeGcode,
;   retractionGcode,
;   toolChangeGcode,
;   endingGcode,G28 X0 ; home X axis,M106 S0 ; turn off cooling fan,M104 S0 ; turn off extruder,M140 S0 ; turn off bed,M84 ; disable motors
;   exportFileFormat,gcode
;   celebration,0
;   celebrationSong,Random Song
;   postProcessing,
;   defaultSpeed,2000
;   outlineUnderspeed,0.5
;   solidInfillUnderspeed,0.8
;   supportUnderspeed,0.8
;   rapidXYspeed,4800
;   rapidZspeed,1000
;   minBridgingArea,50
;   bridgingExtraInflation,0
;   bridgingExtrusionMultiplier,1
;   bridgingSpeedMultiplier,1
;   useFixedBridgingAngle,0
;   fixedBridgingAngle,0
;   applyBridgingToPerimeters,0
;   filamentDiameters,1.75|1.75|1.75|1.75|1.75|1.75
;   filamentPricesPerKg,46|46|46|46|46|46
;   filamentDensities,1.25|1.25|1.25|1.25|1.25|1.25
;   useMinPrintHeight,0
;   minPrintHeight,0
;   useMaxPrintHeight,0
;   maxPrintHeight,0
;   useDiaphragm,0
;   diaphragmLayerInterval,20
;   robustSlicing,1
;   mergeAllIntoSolid,0
;   onlyRetractWhenCrossingOutline,1
;   retractBetweenLayers,1
;   useRetractionMinTravel,0
;   retractionMinTravel,3
;   retractWhileWiping,0
;   onlyWipeOutlines,1
;   avoidCrossingOutline,0
;   maxMovementDetourFactor,3
;   toolChangeRetractionDistance,12
;   toolChangeExtraRestartDistance,-0.5
;   toolChangeRetractionSpeed,600
;   externalThinWallType,0
;   internalThinWallType,2
;   thinWallAllowedOverlapPercentage,10
;   singleExtrusionMinLength,1
;   singleExtrusionMinPrintingWidthPercentage,50
;   singleExtrusionMaxPrintingWidthPercentage,200
;   singleExtrusionEndpointExtension,0.2
;   horizontalSizeCompensation,0
G90
M82
M106 S0
M140 S60
M190 S60
M104 S210 T0
M109 S210 T0
G28 ; home all axes
G1 X5 Y10 Z0.2 F3000 ; get ready to prime
G92 E0 ; reset extrusion distance
G1 X160 E15 F600 ; prime nozzle
G1 X180 F5000 ; quick wipe
; process PLA
; layer 1, Z = 0.240
T0
G92 E0.0000
G1 E-4.0000 F2400
; feature skirt
; tool H0.240 W0.720
G1 Z0.240 F1000
G1 X72.043 Y71.657 F4800
G1 E0.0000 F2400
G92 E0.0000
G1 X88.691 Y71.657 E1.3755 F1000
G1 X96.167 Y79.133 E2.2489
G1 X96.167 Y95.781 E3.6244
G1 X88.691 Y103.257 E4.4979
G1 X72.043 Y103.257 E5.8733
G1 X64.567 Y95.781 E6.7468
G1 X64.567 Y79.133 E8.1223
G1 X72.043 Y71.657 E8.9957
G92 E0.0000
G1 E-4.0000 F2400
G1 X72.341 Y72.377 F4800
G1 E0.0000 F2400
G92 E0.0000
G1 X88.393 Y72.377 E1.3262 F1000
G1 X95.447 Y79.431 E2.1504
G1 X95.447 Y95.483 E3.4766
G1 X88.393 Y102.537 E4.3007
G1 X72.341 Y102.537 E5.6269
G1 X65.287 Y95.483 E6.4511
G1 X65.287 Y79.431 E7.7773
G1 X72.341 Y72.377 E8.6015
G92 E0.0000
G1 E-4.0000 F2400
; feature outer perimeter
G1 X77.949 Y82.784 F4800
G1 E0.0000 F2400
G92 E0.0000
G1 X78.007 Y82.758 E0.0052 F500
G1 X78.007 Y84.244 E0.1280
G1 X76.128 Y84.361 E0.2835
G1 X76.287 Y84.136 E0.3063
G1 X76.777 Y83.611 E0.3656
G1 X77.334 Y83.158 E0.4249
G1 X77.949 Y82.784 E0.4844
; feature gap fill
; tool H0.240 W0.480
G1 X77.360 Y83.771 F4800
G92 E0.0000
G1 X77.379 Y83.790 E0.0015 F1000
G92 E0.0000
G1 E-4.0000 F2400
; feature outer perimeter
; tool H0.240 W0.720
G1 X82.727 Y84.244 F4800
G1 E0.0000 F2400
G92 E0.0000
G1 X82.727 Y82.758 E0.1228 F500
G1 X82.785 Y82.784 E0.1280
G1 X83.400 Y83.158 E0.1875
G1 X83.957 Y83.611 E0.2468
G1 X84.447 Y84.136 E0.3061
G1 X84.606 Y84.361 E0.3289
G1 X82.727 Y84.244 E0.4844
G92 E0.0000
G1 E-4.0000 F2400
G1 X82.727 Y90.665 F4800
G1 E0.0000 F2400
G92 E0.0000
G1 X84.606 Y90.548 E0.1555 F500
G1 X84.447 Y90.774 E0.1783
G1 X83.957 Y91.298 E0.2376
G1 X83.400 Y91.751 E0.2969
G1 X82.785 Y92.125 E0.3564
G1 X82.727 Y92.151 E0.3616
G1 X82.727 Y90.665 E0.4844
; feature gap fill
; tool H0.240 W0.480
G1 X83.351 Y91.120 F4800
G92 E0.0000
G1 X83.371 Y91.140 E0.0016 F1000
G92 E0.0000
G1 E-4.0000 F2400
; feature outer perimeter
; tool H0.240 W0.720
G1 X78.007 Y90.665 F4800
G1 E0.0000 F2400
G92 E0.0000
G1 X78.007 Y92.151 E0.1228 F500
G1 X77.949 Y92.125 E0.1280
G1 X77.334 Y91.751 E0.1875
G1 X76.777 Y91.298 E0.2468
G1 X76.287 Y90.774 E0.3061
G1 X76.128 Y90.548 E0.3289
G1 X78.007 Y90.665 E0.4844
G92 E0.0000
G1 E-4.0000 F2400
; feature support
G1 X81.697 Y92.257 F4800
G1 E0.0000 F2400
G92 E0.0000
G1 X79.037 Y92.257 E0.2198 F800
G1 X79.037 Y90.657 E0.3520
G1 X81.697 Y90.657 E0.5717
G1 X81.697 Y89.698 E0.6510
G1 X86.217 Y89.416 E1.0252
G1 X86.217 Y89.057 E1.0548
G1 X82.017 Y89.057 E1.4018
G1 X82.017 Y89.107 E1.4059
G1 X78.717 Y89.107 E1.6786
G1 X78.717 Y89.057 E1.6827
G1 X74.517 Y89.057 E2.0297
G1 X74.517 Y87.457 E2.1619
G1 X78.717 Y87.457 E2.5089
G1 X78.717 Y85.857 E2.6411
G1 X74.517 Y85.857 E2.9881
G1 X74.517 Y85.494 E3.0181
G1 X79.037 Y85.212 E3.3922
G1 X79.037 Y84.257 E3.4711
G1 X81.697 Y84.257 E3.6909
G1 X81.697 Y82.657 E3.8231
G1 X79.037 Y82.657 E4.0429
G92 E0.0000
G1 E-4.0000 F2400
G1 X82.017 Y85.857 F4800
G1 E0.0000 F2400
G92 E0.0000
G1 X86.217 Y85.857 E0.3470 F800
G1 X86.217 Y87.457 E0.4792
G1 X82.017 Y87.457 E0.8262
G92 E0.0000
G1 E-4.0000 F2400
G1 X83.517 Y81.057 F4800
G1 E0.0000 F2400
G92 E0.0000
G1 X89.217 Y81.057 E0.4709 F800
G1 X89.217 Y81.607 E0.5164
G1 X90.717 Y81.607 E0.6403
G1 X90.717 Y82.657 E0.7270
G1 X86.517 Y82.657 E1.0740
G1 X86.517 Y84.257 E1.2062
G1 X90.717 Y84.257 E1.5532
G1 X90.717 Y85.857 E1.6854
G1 X88.017 Y85.857 E1.9085
G1 X88.017 Y87.457 E2.0407
G1 X90.717 Y87.457 E2.2637
G1 X90.717 Y89.057 E2.3959
G1 X88.017 Y89.057 E2.6190
G1 X88.017 Y90.607 E2.7471
G1 X86.517 Y90.607 E2.8710
G1 X86.517 Y90.657 E2.8751
G1 X90.717 Y90.657 E3.2221
G1 X90.717 Y92.257 E3.3543
G1 X86.517 Y92.257 E3.7013
G92 E0.0000
G1 E-4.0000 F2400
G1 X86.217 Y97.057 F4800
G1 E0.0000 F2400
G92 E0.0000
G1 X74.517 Y97.057 E0.9666 F800
G1 X74.517 Y96.307 E1.0286
G1 X73.017 Y96.307 E1.1525
G1 X73.017 Y95.457 E1.2227
G1 X87.717 Y95.457 E2.4372
G1 X87.717 Y94.807 E2.4909
G1 X89.217 Y94.807 E2.6149
G1 X89.217 Y93.857 E2.6934
G1 X83.517 Y93.857 E3.1643
G1 X83.517 Y95.107 E3.2675
G1 X77.217 Y95.107 E3.7880
G1 X77.217 Y93.857 E3.8913
G1 X71.517 Y93.857 E4.3622
G1 X71.517 Y93.307 E4.4077
G1 X70.017 Y93.307 E4.5316
G1 X70.017 Y92.257 E4.6184
G1 X74.217 Y92.257 E4.9653
G1 X74.217 Y90.657 E5.0975
G1 X70.017 Y90.657 E5.4445
G1 X70.017 Y89.057 E5.5767
G1 X72.717 Y89.057 E5.7998
G1 X72.717 Y87.457 E5.9320
G1 X70.017 Y87.457 E6.1551
G1 X70.017 Y85.857 E6.2872
G1 X72.717 Y85.857 E6.5103
G1 X72.717 Y84.307 E6.6384
G1 X74.217 Y84.307 E6.7623
G1 X74.217 Y84.257 E6.7664
G1 X70.017 Y84.257 E7.1134
G1 X70.017 Y82.657 E7.2456
G1 X74.217 Y82.657 E7.5926
G1 X74.217 Y81.307 E7.7041
G1 X77.217 Y81.307 E7.9520
G1 X77.217 Y81.057 E7.9727
G1 X71.517 Y81.057 E8.4436
G1 X71.517 Y80.107 E8.5221
G1 X73.017 Y80.107 E8.6460
G1 X73.017 Y79.457 E8.6997
G1 X87.717 Y79.457 E9.9142
G1 X87.717 Y78.607 E9.9844
G1 X86.217 Y78.607 E10.1083
G1 X86.217 Y77.857 E10.1703
G1 X74.517 Y77.857 E11.1369
G92 E0.0000
G1 E-4.0000 F2400
; layer 2, Z = 0.440
M106 S255
M140 S50
M104 S195 T0
; feature inner perimeter
; tool H0.200 W0.480
G1 Z0.440 F1000
G1 X77.647 Y83.085 F4800
G1 E0.0000 F2400
G92 E0.0000
G1 X77.647 Y83.906 E0.0377 F1181
G1 X77.069 Y83.942 E0.0643
G1 X76.954 Y83.649 E0.0787
G1 X77.647 Y83.085 E0.1197
; feature outer perimeter
G1 X77.138 Y82.880 F4800
G92 E0.0000
G1 X77.791 Y82.483 E0.0351 F787
G1 X78.127 Y82.336 E0.0519
G1 X78.127 Y84.357 E0.1447
G1 X75.605 Y84.514 E0.2607
G1 X76.023 Y83.921 E0.2940
G1 X76.545 Y83.363 E0.3291
G1 X77.138 Y82.880 E0.3642
G92 E0.0000
G1 E-4.0000 F2400
; feature inner perimeter
G1 X83.087 Y83.085 F4800
G1 E0.0000 F2400
G92 E0.0000
G1 X83.780 Y83.649 E0.0410 F1181
G1 X83.665 Y83.942 E0.0555
G1 X83.087 Y83.906 E0.0820
G1 X83.087 Y83.085 E0.1197
; feature outer perimeter
G1 X83.596 Y82.880 F4800
G92 E0.0000
G1 X84.189 Y83.363 E0.0351 F787
G1 X84.711 Y83.921 E0.0702
G1 X85.129 Y84.514 E0.1035
G1 X82.607 Y84.357 E0.2195
G1 X82.607 Y82.336 E0.3122
G1 X82.943 Y82.483 E0.3291
G1 X83.596 Y82.880 E0.3642
G92 E0.0000
G1 E-4.0000 F2400
; feature inner perimeter
G1 X83.665 Y90.968 F4800
G1 E0.0000 F2400
G92 E0.0000
G1 X83.780 Y91.261 E0.0145 F1181
G1 X83.087 Y91.825 E0.0555
G1 X83.087 Y91.004 E0.0931
G1 X83.665 Y90.968 E0.1197
; feature outer perimeter
G1 X84.189 Y91.547 F4800
G92 E0.0000
G1 X83.596 Y92.029 E0.0351 F787
G1 X82.943 Y92.427 E0.0702
G1 X82.607 Y92.574 E0.0870
G1 X82.607 Y90.553 E0.1798
G1 X85.129 Y90.396 E0.2958
G1 X84.711 Y90.989 E0.3291
G1 X84.189 Y91.547 E0.3642
G92 E0.0000
G1 E-4.0000 F2400
; feature inner perimeter
G1 X77.647 Y91.825 F4800
G1 E0.0000 F2400
G92 E0.0000
G1 X76.954 Y91.261 E0.0410 F1181
G1 X77.069 Y90.968 E0.0555
G1 X77.647 Y91.004 E0.0820
G1 X77.647 Y91.825 E0.1197
; feature outer perimeter
G1 X77.138 Y92.029 F4800
G92 E0.0000
G1 X76.545 Y91.547 E0.0351 F787
G1 X76.023 Y90.989 E0.0702
G1 X75.605 Y90.396 E0.1035
G1 X78.127 Y90.553 E0.2195
G1 X78.127 Y92.574 E0.3122
G1 X77.791 Y92.427 E0.3291
G1 X77.138 Y92.029 E0.3642
G92 E0.0000
G1 E-4.0000 F2400
; feature support
G1 X81.817 Y92.257 F4800
G1 E0.0000 F2400
G92 E0.0000
G1 X78.917 Y92.257 E0.1331 F1260
G1 X78.917 Y90.657 E0.2065
G1 X81.817 Y90.657 E0.3397
G1 X81.817 Y89.810 E0.3785
G1 X86.337 Y89.529 E0.5864
G1 X86.337 Y89.057 E0.6080
G1 X74.397 Y89.057 E1.1561
G1 X74.397 Y87.457 E1.2295
G1 X78.837 Y87.457 E1.4333
G1 X78.837 Y85.927 E1.5035
G1 X81.897 Y85.927 E1.6440
G1 X81.897 Y87.457 E1.7142
G1 X86.337 Y87.457 E1.9180
G1 X86.337 Y85.857 E1.9914
G1 X74.397 Y85.857 E2.5395
G1 X74.397 Y85.381 E2.5613
G1 X78.917 Y85.099 E2.7692
G1 X78.917 Y84.257 E2.8078
G1 X81.817 Y84.257 E2.9409
G1 X81.817 Y82.657 E3.0144
G1 X78.917 Y82.657 E3.1475
G92 E0.0000
G1 E-4.0000 F2400
G1 X83.397 Y81.057 F4800
G1 E0.0000 F2400
G92 E0.0000
G1 X89.337 Y81.057 E0.2726 F1260
G1 X89.337 Y81.487 E0.2924
G1 X90.837 Y81.487 E0.3612
G1 X90.837 Y82.657 E0.4149
G1 X86.397 Y82.657 E0.6187
G1 X86.397 Y84.257 E0.6922
G1 X90.837 Y84.257 E0.8959
G1 X90.837 Y85.857 E0.9694
G1 X87.897 Y85.857 E1.1043
G1 X87.897 Y87.457 E1.1778
G1 X90.837 Y87.457 E1.3127
G1 X90.837 Y89.057 E1.3861
G1 X87.897 Y89.057 E1.5211
G1 X87.897 Y90.487 E1.5867
G1 X86.397 Y90.487 E1.6556
G1 X86.397 Y90.657 E1.6634
G1 X90.837 Y90.657 E1.8672
G1 X90.837 Y92.257 E1.9406
G1 X86.397 Y92.257 E2.1444
G92 E0.0000
G1 E-4.0000 F2400
G1 X86.337 Y97.057 F4800
G1 E0.0000 F2400
G92 E0.0000
G1 X74.397 Y97.057 E0.5480 F1260
G1 X74.397 Y96.427 E0.5770
G1 X72.897 Y96.427 E0.6458
G1 X72.897 Y95.457 E0.6903
G1 X87.837 Y95.457 E1.3761
G1 X87.837 Y94.927 E1.4004
G1 X89.337 Y94.927 E1.4692
G1 X89.337 Y93.857 E1.5183
G1 X83.397 Y93.857 E1.7910
G1 X83.397 Y94.987 E1.8428
G1 X77.337 Y94.987 E2.1210
G1 X77.337 Y93.857 E2.1729
G1 X71.397 Y93.857 E2.4455
G1 X71.397 Y93.427 E2.4652
G1 X69.897 Y93.427 E2.5341
G1 X69.897 Y92.257 E2.5878
G1 X74.337 Y92.257 E2.7916
G1 X74.337 Y90.657 E2.8650
G1 X69.897 Y90.657 E3.0688
G1 X69.897 Y89.057 E3.1422
G1 X72.837 Y89.057 E3.2772
G1 X72.837 Y87.457 E3.3506
G1 X69.897 Y87.457 E3.4856
G1 X69.897 Y85.857 E3.5590
G1 X72.837 Y85.857 E3.6939
G1 X72.837 Y84.427 E3.7596
G1 X74.337 Y84.427 E3.8284
G1 X74.337 Y84.257 E3.8362
G1 X69.897 Y84.257 E4.0400
G1 X69.897 Y82.657 E4.1135
G1 X74.337 Y82.657 E4.3173
G1 X74.337 Y81.427 E4.3737
G1 X77.337 Y81.427 E4.5114
G1 X77.337 Y81.057 E4.5284
G1 X71.397 Y81.057 E4.8010
G1 X71.397 Y79.987 E4.8501
G1 X72.897 Y79.987 E4.9190
G1 X72.897 Y79.457 E4.9433
G1 X87.837 Y79.457 E5.6291
G1 X87.837 Y78.487 E5.6736
G1 X86.337 Y78.487 E5.7424
G1 X86.337 Y77.857 E5.7713
G1 X74.397 Y77.857 E6.3194
G92 E0.0000
G1 E-4.0000 F2400
; layer 3, Z = 0.640
; feature inner perimeter
G1 Z0.640 F1000
G1 X77.646 Y82.900 F4800
G1 E0.0000 F2400
G92 E0.0000
G1 X77.646 Y83.906 E0.0462 F1222
G1 X76.345 Y83.987 E0.1060
G1 X76.737 Y83.568 E0.1324
G1 X77.300 Y83.110 E0.1657
G1 X77.646 Y82.900 E0.1842
; feature outer perimeter
G1 X77.699 Y82.306 F4800
G92 E0.0000
G1 X78.125 Y82.122 E0.0213 F815
G1 X78.127 Y84.357 E0.1239
G1 X75.365 Y84.529 E0.2509
G1 X75.411 Y84.442 E0.2554
G1 X75.868 Y83.795 E0.2918
G1 X76.409 Y83.216 E0.3281
G1 X77.023 Y82.717 E0.3645
G1 X77.699 Y82.306 E0.4008
G92 E0.0000
G1 E-4.0000 F2400
; feature inner perimeter
G1 X83.087 Y82.899 F4800
G1 E0.0000 F2400
G92 E0.0000
G1 X83.434 Y83.110 E0.0186 F1222
G1 X83.997 Y83.568 E0.0520
