; G-Code generated by Simplify3D(R) Version 4.1.1
; Nov 12, 2019 at 3:04:46 PM
; Settings Summary
;   processName,PLA
;   applyToModels,pipemouse_Kettenglied_GummiPad,pipemouse_Kettenglied_GummiPad(2),pipemouse_Kettenglied_GummiPad(3),pipemouse_Kettenglied_GummiPad(3)(2)
;   profileName,Creality Ender 3 (PLA) (modified)
;   profileVersion,2019-05-28 16:44:14
;   baseProfile,Creality Ender 3
;   printMaterial,PLA
;   printQuality,Medium
;   printExtruders,
;   extruderName,Primary Extruder
;   extruderToolheadNumber,0
;   extruderDiameter,0.4
;   extruderAutoWidth,1
;   extruderWidth,0.48
;   extrusionMultiplier,1.15
;   extruderUseRetract,1
;   extruderRetractionDistance,4
;   extruderExtraRestartDistance,0
;   extruderRetractionZLift,0
;   extruderRetractionSpeed,2400
;   extruderUseCoasting,0
;   extruderCoastingDistance,0.2
;   extruderUseWipe,0
;   extruderWipeDistance,5
;   primaryExtruder,0
;   layerHeight,0.2
;   topSolidLayers,3
;   bottomSolidLayers,3
;   perimeterOutlines,2
;   printPerimetersInsideOut,1
;   startPointOption,2
;   startPointOriginX,0
;   startPointOriginY,0
;   sequentialIslands,0
;   spiralVaseMode,0
;   firstLayerHeightPercentage,120
;   firstLayerWidthPercentage,150
;   firstLayerUnderspeed,0.5
;   useRaft,0
;   raftExtruder,0
;   raftTopLayers,3
;   raftBaseLayers,2
;   raftOffset,3
;   raftSeparationDistance,0.14
;   raftTopInfill,100
;   aboveRaftSpeedMultiplier,0.3
;   useSkirt,1
;   skirtExtruder,0
;   skirtLayers,1
;   skirtOutlines,2
;   skirtOffset,4
;   usePrimePillar,0
;   primePillarExtruder,999
;   primePillarWidth,12
;   primePillarLocation,7
;   primePillarSpeedMultiplier,1
;   useOozeShield,0
;   oozeShieldExtruder,999
;   oozeShieldOffset,2
;   oozeShieldOutlines,1
;   oozeShieldSidewallShape,1
;   oozeShieldSidewallAngle,30
;   oozeShieldSpeedMultiplier,1
;   infillExtruder,0
;   internalInfillPattern,Rectilinear
;   externalInfillPattern,Rectilinear
;   infillPercentage,80
;   outlineOverlapPercentage,15
;   infillExtrusionWidthPercentage,100
;   minInfillLength,5
;   infillLayerInterval,1
;   internalInfillAngles,45,-45
;   overlapInternalInfillAngles,0
;   externalInfillAngles,45,-45
;   generateSupport,1
;   supportExtruder,0
;   supportInfillPercentage,30
;   supportExtraInflation,0
;   supportBaseLayers,0
;   denseSupportExtruder,0
;   denseSupportLayers,0
;   denseSupportInfillPercentage,70
;   supportLayerInterval,1
;   supportHorizontalPartOffset,0.3
;   supportUpperSeparationLayers,1
;   supportLowerSeparationLayers,1
;   supportType,0
;   supportGridSpacing,1.5
;   maxOverhangAngle,45
;   supportAngles,0
;   temperatureName,Primary Extruder,Heated Bed
;   temperatureNumber,0,0
;   temperatureSetpointCount,2,2
;   temperatureSetpointLayers,1,2,1,2
;   temperatureSetpointTemperatures,210,195,60,50
;   temperatureStabilizeAtStartup,1,1
;   temperatureHeatedBed,0,1
;   fanLayers,1,2
;   fanSpeeds,0,100
;   blipFanToFullPower,0
;   adjustSpeedForCooling,1
;   minSpeedLayerTime,15
;   minCoolingSpeedSlowdown,20
;   increaseFanForCooling,0
;   minFanLayerTime,45
;   maxCoolingFanSpeed,100
;   increaseFanForBridging,0
;   bridgingFanSpeed,100
;   use5D,1
;   relativeEdistances,0
;   allowEaxisZeroing,1
;   independentExtruderAxes,0
;   includeM10123,0
;   stickySupport,1
;   applyToolheadOffsets,0
;   gcodeXoffset,0
;   gcodeYoffset,0
;   gcodeZoffset,0
;   overrideMachineDefinition,1
;   machineTypeOverride,0
;   strokeXoverride,220
;   strokeYoverride,220
;   strokeZoverride,250
;   originOffsetXoverride,-5
;   originOffsetYoverride,-5
;   originOffsetZoverride,0
;   homeXdirOverride,-1
;   homeYdirOverride,-1
;   homeZdirOverride,-1
;   flipXoverride,1
;   flipYoverride,-1
;   flipZoverride,1
;   toolheadOffsets,0,0|0,0|0,0|0,0|0,0|0,0
;   overrideFirmwareConfiguration,1
;   firmwareTypeOverride,RepRap (Marlin/Repetier/Sprinter)
;   GPXconfigOverride,r2
;   baudRateOverride,115200
;   overridePrinterModels,1
;   printerModelsOverride
;   startingGcode,G28 ; home all axes,G1 X5 Y10 Z0.2 F3000 ; get ready to prime,G92 E0 ; reset extrusion distance,G1 X160 E15 F600 ; prime nozzle,G1 X180 F5000 ; quick wipe
;   layerChangeGcode,
;   retractionGcode,
;   toolChangeGcode,
;   endingGcode,G28 X0 ; home X axis,M106 S0 ; turn off cooling fan,M104 S0 ; turn off extruder,M140 S0 ; turn off bed,M84 ; disable motors
;   exportFileFormat,gcode
;   celebration,0
;   celebrationSong,Random Song
;   postProcessing,
;   defaultSpeed,2000
;   outlineUnderspeed,0.5
;   solidInfillUnderspeed,0.8
;   supportUnderspeed,0.8
;   rapidXYspeed,4800
;   rapidZspeed,1000
;   minBridgingArea,50
;   bridgingExtraInflation,0
;   bridgingExtrusionMultiplier,1
;   bridgingSpeedMultiplier,1
;   useFixedBridgingAngle,0
;   fixedBridgingAngle,0
;   applyBridgingToPerimeters,0
;   filamentDiameters,1.75|1.75|1.75|1.75|1.75|1.75
;   filamentPricesPerKg,46|46|46|46|46|46
;   filamentDensities,1.25|1.25|1.25|1.25|1.25|1.25
;   useMinPrintHeight,0
;   minPrintHeight,0
;   useMaxPrintHeight,0
;   maxPrintHeight,0
;   useDiaphragm,0
;   diaphragmLayerInterval,20
;   robustSlicing,1
;   mergeAllIntoSolid,0
;   onlyRetractWhenCrossingOutline,1
;   retractBetweenLayers,1
;   useRetractionMinTravel,0
;   retractionMinTravel,3
;   retractWhileWiping,0
;   onlyWipeOutlines,1
;   avoidCrossingOutline,0
;   maxMovementDetourFactor,3
;   toolChangeRetractionDistance,12
;   toolChangeExtraRestartDistance,-0.5
;   toolChangeRetractionSpeed,600
;   externalThinWallType,0
;   internalThinWallType,2
;   thinWallAllowedOverlapPercentage,10
;   singleExtrusionMinLength,1
;   singleExtrusionMinPrintingWidthPercentage,50
;   singleExtrusionMaxPrintingWidthPercentage,200
;   singleExtrusionEndpointExtension,0.2
;   horizontalSizeCompensation,0
G90
M82
M106 S0
M140 S60
M190 S60
M104 S210 T0
M109 S210 T0
G28 ; home all axes
G1 X5 Y10 Z0.2 F3000 ; get ready to prime
G92 E0 ; reset extrusion distance
G1 X160 E15 F600 ; prime nozzle
G1 X180 F5000 ; quick wipe
; process PLA
; layer 1, Z = 0.240
T0
G92 E0.0000
G1 E-4.0000 F2400
; feature skirt
; tool H0.240 W0.720
G1 Z0.240 F1000
G1 X92.749 Y94.396 F4800
G1 E0.0000 F2400
G92 E0.0000
G1 X95.724 Y91.420 E0.3477 F1000
G1 X109.424 Y91.420 E1.4795
G1 X112.400 Y94.396 E1.8272
G1 X112.400 Y96.420 E1.9945
G1 X113.276 Y96.420 E2.0668
G1 X113.749 Y96.893 E2.1221
G1 X113.749 Y94.396 E2.3284
G1 X116.724 Y91.420 E2.6761
G1 X130.424 Y91.420 E3.8079
G1 X133.400 Y94.396 E4.1556
G1 X133.400 Y96.420 E4.3229
G1 X134.276 Y96.420 E4.3952
G1 X137.251 Y99.396 E4.7429
G1 X137.251 Y109.604 E5.5863
G1 X134.276 Y112.580 E5.9340
G1 X133.400 Y112.580 E6.0063
G1 X133.400 Y114.604 E6.1736
G1 X133.004 Y115.000 E6.2198
G1 X133.400 Y115.396 E6.2661
G1 X133.400 Y117.420 E6.4333
G1 X134.276 Y117.420 E6.5056
G1 X137.251 Y120.396 E6.8533
G1 X137.251 Y130.604 E7.6967
G1 X134.276 Y133.580 E8.0444
G1 X133.400 Y133.580 E8.1168
G1 X133.400 Y135.604 E8.2840
G1 X130.424 Y138.580 E8.6317
G1 X116.724 Y138.580 E9.7635
G1 X113.749 Y135.604 E10.1112
G1 X113.749 Y133.107 E10.3175
G1 X113.276 Y133.580 E10.3728
G1 X112.400 Y133.580 E10.4451
G1 X112.400 Y135.604 E10.6124
G1 X109.424 Y138.580 E10.9601
G1 X95.724 Y138.580 E12.0919
G1 X92.749 Y135.604 E12.4396
G1 X92.749 Y126.646 E13.1797
G1 X93.894 Y125.500 E13.3136
G1 X92.749 Y124.354 E13.4475
G1 X92.749 Y115.396 E14.1876
G1 X93.144 Y115.000 E14.2339
G1 X92.749 Y114.604 E14.2801
G1 X92.749 Y105.646 E15.0202
G1 X93.894 Y104.500 E15.1541
G1 X92.749 Y103.354 E15.2880
G1 X92.749 Y94.396 E16.0281
G92 E0.0000
G1 E-4.0000 F2400
G1 X93.469 Y94.694 F4800
G1 E0.0000 F2400
G92 E0.0000
G1 X96.023 Y92.140 E0.2984 F1000
G1 X109.126 Y92.140 E1.3810
G1 X111.680 Y94.694 E1.6794
G1 X111.680 Y97.140 E1.8815
G1 X112.977 Y97.140 E1.9887
G1 X114.469 Y98.631 E2.1629
G1 X114.469 Y94.694 E2.4882
G1 X117.023 Y92.140 E2.7866
G1 X130.126 Y92.140 E3.8692
G1 X132.680 Y94.694 E4.1676
G1 X132.680 Y97.140 E4.3697
G1 X133.977 Y97.140 E4.4768
G1 X136.531 Y99.694 E4.7753
G1 X136.531 Y109.306 E5.5694
G1 X133.977 Y111.860 E5.8678
G1 X132.680 Y111.860 E5.9750
G1 X132.680 Y114.306 E6.1771
G1 X131.986 Y115.000 E6.2582
G1 X132.680 Y115.694 E6.3392
G1 X132.680 Y118.140 E6.5413
G1 X133.977 Y118.140 E6.6485
G1 X136.531 Y120.694 E6.9469
G1 X136.531 Y130.306 E7.7411
G1 X133.977 Y132.860 E8.0395
G1 X132.680 Y132.860 E8.1467
G1 X132.680 Y135.306 E8.3487
G1 X130.126 Y137.860 E8.6471
G1 X117.023 Y137.860 E9.7297
G1 X114.469 Y135.306 E10.0281
G1 X114.469 Y131.369 E10.3534
G1 X112.977 Y132.860 E10.5276
G1 X111.680 Y132.860 E10.6348
G1 X111.680 Y135.306 E10.8369
G1 X109.126 Y137.860 E11.1353
G1 X96.023 Y137.860 E12.2179
G1 X93.469 Y135.306 E12.5163
G1 X93.469 Y126.944 E13.2072
G1 X94.913 Y125.500 E13.3759
G1 X93.469 Y124.056 E13.5446
G1 X93.469 Y115.694 E14.2354
G1 X94.163 Y115.000 E14.3165
G1 X93.469 Y114.306 E14.3976
G1 X93.469 Y105.944 E15.0885
G1 X94.913 Y104.500 E15.2572
G1 X93.469 Y103.056 E15.4259
G1 X93.469 Y94.694 E16.1168
G92 E0.0000
G1 E-4.0000 F2400
; feature inner perimeter
G1 X98.909 Y97.580 F4800
G1 E0.0000 F2400
G92 E0.0000
G1 X106.240 Y97.580 E0.6057 F750
G1 X106.240 Y102.580 E1.0188
G1 X110.091 Y102.580 E1.3370
G1 X110.091 Y106.420 E1.6543
G1 X106.240 Y106.420 E1.9725
G1 X106.240 Y111.420 E2.3855
G1 X98.909 Y111.420 E2.9913
G1 X98.909 Y108.830 E3.2052
G1 X105.080 Y108.830 E3.7151
G1 X105.080 Y100.170 E4.4306
G1 X98.909 Y100.170 E4.9405
G1 X98.909 Y97.580 E5.1544
; feature outer perimeter
G1 X98.189 Y96.860 F4800
G92 E0.0000
G1 X106.960 Y96.860 E0.7247 F500
G1 X106.960 Y101.860 E1.1378
G1 X110.811 Y101.860 E1.4560
G1 X110.811 Y107.140 E1.8922
G1 X106.960 Y107.140 E2.2104
G1 X106.960 Y112.140 E2.6235
G1 X98.189 Y112.140 E3.3482
G1 X98.189 Y108.110 E3.6811
G1 X104.360 Y108.110 E4.1910
G1 X104.360 Y100.890 E4.7875
G1 X98.189 Y100.890 E5.2974
G1 X98.189 Y96.860 E5.6303
; feature solid layer
G1 X99.521 Y99.521 F4800
G92 E0.0000
G1 X99.558 Y99.558 E0.0044 F800
G1 X100.576 Y99.558 E0.0885
G1 X99.521 Y98.502 E0.2118
G1 X99.521 Y98.192 E0.2375
G1 X100.228 Y98.192 E0.2960
G1 X101.594 Y99.558 E0.4556
G1 X102.613 Y99.558 E0.5397
G1 X101.247 Y98.192 E0.6993
G1 X102.265 Y98.192 E0.7834
G1 X103.631 Y99.558 E0.9430
G1 X104.649 Y99.558 E1.0272
G1 X103.283 Y98.192 E1.1868
G1 X104.301 Y98.192 E1.2709
G1 X105.628 Y99.519 E1.4259
G1 X105.628 Y98.500 E1.5100
G1 X105.320 Y98.192 E1.5460
G92 E0.0000
G1 E-4.0000 F2400
G1 X109.301 Y103.192 F4800
G1 E0.0000 F2400
G92 E0.0000
G1 X109.479 Y103.370 E0.0208 F800
G1 X109.479 Y104.388 E0.1049
G1 X108.283 Y103.192 E0.2447
G1 X107.265 Y103.192 E0.3288
G1 X109.479 Y105.406 E0.5876
G1 X109.479 Y105.808 E0.6207
G1 X108.863 Y105.808 E0.6717
G1 X106.247 Y103.192 E0.9773
G1 X105.692 Y103.192 E1.0232
G1 X105.692 Y103.656 E1.0615
G1 X107.844 Y105.808 E1.3130
G1 X106.826 Y105.808 E1.3971
G1 X105.692 Y104.674 E1.5296
G1 X105.692 Y105.692 E1.6137
G1 X105.808 Y105.808 E1.6273
G1 X105.369 Y109.442 F4800
G92 E0.0000
G1 X105.628 Y109.701 E0.0303 F800
G1 X105.628 Y110.719 E0.1144
G1 X104.351 Y109.442 E0.2636
G1 X103.333 Y109.442 E0.3477
G1 X104.699 Y110.808 E0.5073
G1 X103.680 Y110.808 E0.5914
G1 X102.314 Y109.442 E0.7511
G1 X101.296 Y109.442 E0.8352
G1 X102.662 Y110.808 E0.9948
G1 X101.644 Y110.808 E1.0789
G1 X100.278 Y109.442 E1.2385
G1 X99.521 Y109.442 E1.3011
G1 X99.521 Y109.703 E1.3226
G1 X100.626 Y110.808 E1.4518
G1 X99.607 Y110.808 E1.5359
G1 X99.521 Y110.721 E1.5460
G92 E0.0000
G1 E-4.0000 F2400
; feature inner perimeter
G1 X98.909 Y118.580 F4800
G1 E0.0000 F2400
G92 E0.0000
G1 X106.240 Y118.580 E0.6057 F750
G1 X106.240 Y123.580 E1.0188
G1 X110.091 Y123.580 E1.3370
G1 X110.091 Y127.420 E1.6543
G1 X106.240 Y127.420 E1.9725
G1 X106.240 Y132.420 E2.3855
G1 X98.909 Y132.420 E2.9912
G1 X98.909 Y129.830 E3.2052
G1 X105.080 Y129.830 E3.7151
G1 X105.080 Y121.170 E4.4306
G1 X98.909 Y121.170 E4.9404
G1 X98.909 Y118.580 E5.1544
; feature outer perimeter
G1 X98.189 Y117.860 F4800
G92 E0.0000
G1 X106.960 Y117.860 E0.7247 F500
G1 X106.960 Y122.860 E1.1378
G1 X110.811 Y122.860 E1.4560
G1 X110.811 Y128.140 E1.8922
G1 X106.960 Y128.140 E2.2104
G1 X106.960 Y133.140 E2.6235
G1 X98.189 Y133.140 E3.3482
G1 X98.189 Y129.110 E3.6811
G1 X104.360 Y129.110 E4.1910
G1 X104.360 Y121.890 E4.7875
G1 X98.189 Y121.890 E5.2974
G1 X98.189 Y117.860 E5.6303
; feature solid layer
G1 X100.193 Y120.558 F4800
G92 E0.0000
G1 X99.521 Y119.885 E0.0786 F800
G1 X99.521 Y119.192 E0.1359
G1 X99.846 Y119.192 E0.1627
G1 X101.212 Y120.558 E0.3223
G1 X102.230 Y120.558 E0.4065
G1 X100.864 Y119.192 E0.5661
G1 X101.882 Y119.192 E0.6502
G1 X103.248 Y120.558 E0.8098
G1 X104.266 Y120.558 E0.8939
G1 X102.900 Y119.192 E1.0535
G1 X103.919 Y119.192 E1.1376
G1 X105.285 Y120.558 E1.2972
G1 X105.628 Y120.558 E1.3256
G1 X105.628 Y119.883 E1.3814
G1 X104.937 Y119.192 E1.4621
G92 E0.0000
G1 E-4.0000 F2400
G1 X108.919 Y124.192 F4800
G1 E0.0000 F2400
G92 E0.0000
G1 X109.479 Y124.753 E0.0655 F800
G1 X109.479 Y125.771 E0.1497
G1 X107.900 Y124.192 E0.3342
G1 X106.882 Y124.192 E0.4183
G1 X109.479 Y126.789 E0.7218
G1 X109.479 Y126.808 E0.7233
G1 X108.480 Y126.808 E0.8059
G1 X105.864 Y124.192 E1.1116
G1 X105.692 Y124.192 E1.1257
G1 X105.692 Y125.038 E1.1957
G1 X107.462 Y126.808 E1.4024
G1 X106.443 Y126.808 E1.4866
G1 X105.692 Y126.057 E1.5743
G1 X104.986 Y130.442 F4800
G92 E0.0000
G1 X105.628 Y131.084 E0.0750 F800
G1 X105.628 Y131.808 E0.1348
G1 X105.334 Y131.808 E0.1591
G1 X103.968 Y130.442 E0.3187
G1 X102.950 Y130.442 E0.4028
G1 X104.316 Y131.808 E0.5624
G1 X103.297 Y131.808 E0.6466
G1 X101.931 Y130.442 E0.8062
G1 X100.913 Y130.442 E0.8903
G1 X102.279 Y131.808 E1.0499
G1 X101.261 Y131.808 E1.1340
G1 X99.895 Y130.442 E1.2936
G1 X99.521 Y130.442 E1.3246
G1 X99.521 Y131.086 E1.3778
G1 X100.243 Y131.808 E1.4621
G92 E0.0000
G1 E-4.0000 F2400
; feature inner perimeter
G1 X119.909 Y132.420 F4800
G1 E0.0000 F2400
G92 E0.0000
G1 X119.909 Y129.830 E0.2140 F750
G1 X126.080 Y129.830 E0.7239
G1 X126.080 Y121.170 E1.4393
G1 X119.909 Y121.170 E1.9492
G1 X119.909 Y118.580 E2.1632
G1 X127.240 Y118.580 E2.7689
G1 X127.240 Y123.580 E3.1820
G1 X131.091 Y123.580 E3.5002
G1 X131.091 Y127.420 E3.8174
G1 X127.240 Y127.420 E4.1356
G1 X127.240 Y132.420 E4.5487
G1 X119.909 Y132.420 E5.1544
; feature outer perimeter
G1 X119.189 Y133.140 F4800
G92 E0.0000
G1 X119.189 Y129.110 E0.3330 F500
G1 X125.360 Y129.110 E0.8428
G1 X125.360 Y121.890 E1.4393
G1 X119.189 Y121.890 E1.9492
G1 X119.189 Y117.860 E2.2822
G1 X127.960 Y117.860 E3.0068
G1 X127.960 Y122.860 E3.4199
G1 X131.811 Y122.860 E3.7381
G1 X131.811 Y128.140 E4.1743
G1 X127.960 Y128.140 E4.4925
G1 X127.960 Y133.140 E4.9056
G1 X119.189 Y133.140 E5.6303
; feature solid layer
G1 X120.521 Y131.721 F4800
G92 E0.0000
G1 X120.607 Y131.808 E0.0102 F800
G1 X121.626 Y131.808 E0.0943
G1 X120.521 Y130.703 E0.2234
G1 X120.521 Y130.442 E0.2450
G1 X121.278 Y130.442 E0.3075
G1 X122.644 Y131.808 E0.4671
G1 X123.662 Y131.808 E0.5512
G1 X122.296 Y130.442 E0.7109
G1 X123.314 Y130.442 E0.7950
G1 X124.680 Y131.808 E0.9546
G1 X125.699 Y131.808 E1.0387
G1 X124.333 Y130.442 E1.1983
G1 X125.351 Y130.442 E1.2824
G1 X126.628 Y131.719 E1.4317
G1 X126.628 Y130.701 E1.5158
G1 X126.369 Y130.442 E1.5460
G1 X126.808 Y126.808 F4800
G92 E0.0000
G1 X126.692 Y126.692 E0.0136 F800
G1 X126.692 Y125.674 E0.0977
G1 X127.826 Y126.808 E0.2302
G1 X128.844 Y126.808 E0.3143
G1 X126.692 Y124.656 E0.5658
G1 X126.692 Y124.192 E0.6041
G1 X127.247 Y124.192 E0.6499
G1 X129.863 Y126.808 E0.9556
G1 X130.479 Y126.808 E1.0066
G1 X130.479 Y126.406 E1.0397
G1 X128.265 Y124.192 E1.2985
G1 X129.283 Y124.192 E1.3826
G1 X130.479 Y125.388 E1.5224
G1 X130.479 Y124.370 E1.6065
G1 X130.301 Y124.192 E1.6273
G92 E0.0000
G1 E-4.0000 F2400
G1 X126.320 Y119.192 F4800
G1 E0.0000 F2400
G92 E0.0000
G1 X126.628 Y119.500 E0.0360 F800
G1 X126.628 Y120.519 E0.1201
G1 X125.301 Y119.192 E0.2751
G1 X124.283 Y119.192 E0.3593
G1 X125.649 Y120.558 E0.5189
G1 X124.631 Y120.558 E0.6030
G1 X123.265 Y119.192 E0.7626
G1 X122.247 Y119.192 E0.8467
G1 X123.613 Y120.558 E1.0063
G1 X122.594 Y120.558 E1.0905
G1 X121.228 Y119.192 E1.2501
G1 X120.521 Y119.192 E1.3085
G1 X120.521 Y119.502 E1.3342
G1 X121.576 Y120.558 E1.4575
